DLinC3/legged-bilevel-calibration/fw_iters/iter_000_state.csv
t,t_sec,p_base_x,p_base_y,p_base_z,q_base_x,q_base_y,q_base_z,q_base_w,v_base_x,v_base_y,v_base_z,joint_pos_0,joint_pos_1,joint_pos_2,joint_pos_3,joint_pos_4,joint_pos_5,joint_pos_6,joint_pos_7,joint_pos_8,joint_pos_9,joint_pos_10,joint_pos_11
0.000000000000000000e+00,0.000000000000000000e+00,-1.355766893253330885e+00,-4.061249958034375829e-01,5.911610662851038978e-01,4.852897416989067521e-03,3.603637505144527148e-03,-8.544652030564844347e-01,5.238217024724319826e-01,3.621967356388399173e-01,8.231735669267669087e-01,1.950576511179271527e-02,-9.863199999999999745e-02,8.946349999999999580e-01,-1.405129999999999990e+00,9.456109999999999516e-02,3.484639999999999960e-01,-1.313700000000000090e+00,-1.690329999999999888e-01,4.887790000000000190e-01,-1.396579999999999933e+00,6.486970000000000236e-02,9.221580000000000332e-01,-1.340049999999999963e+00
1.000000000000000000e+00,5.000000000000000104e-03,-1.353911068839842580e+00,-4.020140797834865776e-01,5.913003492077548717e-01,4.352802601075829100e-03,3.689608030278083029e-03,-8.548259593270622902e-01,5.232365766981044164e-01,3.801430204429757098e-01,8.211928624724842418e-01,3.620469640141591589e-02,-1.010660000000000031e-01,8.847230000000000372e-01,-1.411689999999999889e+00,9.712750000000000550e-02,3.366060000000000163e-01,-1.306130000000000013e+00,-1.680589999999999862e-01,4.793100000000000138e-01,-1.392770000000000064e+00,6.522369999999999557e-02,9.126009999999999955e-01,-1.345860000000000056e+00
2.000000000000000000e+00,1.000000000000000021e-02,-1.352010105439720222e+00,-3.978953820899522875e-01,5.914649868306879332e-01,3.922063495871801891e-03,3.683744063051081798e-03,-8.552657895771306196e-01,5.225207868197245809e-01,3.802489829158351431e-01,8.262894400807185846e-01,2.964996120859915429e-02,-1.023049999999999932e-01,8.784399999999999986e-01,-1.414050000000000029e+00,9.849929999999999797e-02,3.233309999999999795e-01,-1.297520000000000007e+00,-1.685460000000000014e-01,4.689559999999999840e-01,-1.389930000000000110e+00,6.668390000000000428e-02,9.042820000000000302e-01,-1.348770000000000024e+00
3.000000000000000000e+00,1.499999999999999944e-02,-1.350106295027177161e+00,-3.937855089548603083e-01,5.916362801685245421e-01,3.602466528437188020e-03,3.660452844985489802e-03,-8.556892871825541036e-01,5.218294387565521886e-01,3.812780075516896128e-01,8.176631429820649943e-01,3.886781607931094618e-02,-1.030569999999999958e-01,8.735730000000000439e-01,-1.413450000000000095e+00,9.823379999999999612e-02,3.131530000000000147e-01,-1.291989999999999972e+00,-1.672629999999999950e-01,4.617870000000000030e-01,-1.388619999999999965e+00,6.739190000000000458e-02,8.988829999999999876e-01,-1.349250000000000060e+00
4.000000000000000000e+00,2.000000000000000042e-02,-1.348195867774869106e+00,-3.897048589348591219e-01,5.918683754869837887e-01,3.207218953112008983e-03,3.698511171508639134e-03,-8.560736661304646500e-01,5.212009295384374408e-01,3.828998714242230483e-01,8.146001688730920565e-01,5.397029581206039955e-02,-1.031900000000000039e-01,8.660060000000000535e-01,-1.408639999999999892e+00,9.721599999999999686e-02,2.967369999999999730e-01,-1.293909999999999894e+00,-1.628819999999999990e-01,4.514770000000000172e-01,-1.395259999999999945e+00,6.792289999999999439e-02,8.912280000000000202e-01,-1.347329999999999917e+00
5.000000000000000000e+00,2.500000000000000139e-02,-1.346300007176676639e+00,-3.856581085116447816e-01,5.921823722148549241e-01,2.851449027633387590e-03,3.780769162162584372e-03,-8.564265999575882971e-01,5.206222718441412267e-01,3.754497921451809828e-01,8.041042148437633763e-01,7.162965990543729289e-02,-1.028799999999999992e-01,8.602530000000000454e-01,-1.404959999999999987e+00,9.885330000000000505e-02,2.884180000000000077e-01,-1.300610000000000044e+00,-1.630149999999999932e-01,4.452380000000000226e-01,-1.404330000000000078e+00,6.761319999999999830e-02,8.854309999999999681e-01,-1.345890000000000031e+00
6.000000000000000000e+00,2.999999999999999889e-02,-1.344455997817305404e+00,-3.816815108593075156e-01,5.925232562132585201e-01,2.593866721797485723e-03,3.792044775178365565e-03,-8.567233689521973616e-01,5.201350376345880155e-01,3.621538291214741467e-01,7.865390968204816202e-01,6.472567262296934076e-02,-1.015970000000000067e-01,8.541910000000000336e-01,-1.402549999999999963e+00,9.964969999999999384e-02,2.831080000000000263e-01,-1.310289999999999955e+00,-1.630590000000000095e-01,4.422289999999999832e-01,-1.415869999999999962e+00,6.668390000000000428e-02,8.791039999999999965e-01,-1.345290000000000097e+00
7.000000000000000000e+00,3.500000000000000333e-02,-1.342664664717909462e+00,-3.777970928233186920e-01,5.928267942722260653e-01,2.378313354321967554e-03,3.678798798644362499e-03,-8.570223411466250107e-01,5.196441213682979621e-01,3.543774686626726678e-01,7.672324488148275501e-01,5.669122167020822223e-02,-9.867629999999999457e-02,8.452089999999999881e-01,-1.402139999999999942e+00,1.000479999999999980e-01,2.814710000000000267e-01,-1.328430000000000000e+00,-1.631029999999999980e-01,4.428039999999999754e-01,-1.435859999999999914e+00,6.411740000000000494e-02,8.699440000000000506e-01,-1.346340000000000092e+00
8.000000000000000000e+00,4.000000000000000083e-02,-1.340906306723029351e+00,-3.739980937988677256e-01,5.931173292272288178e-01,2.216910355694207049e-03,3.592084601315347070e-03,-8.573269847470174065e-01,5.191426773954957996e-01,3.489644784606512062e-01,7.523709437935458544e-01,5.952371450850447998e-02,-9.668499999999999317e-02,8.367569999999999730e-01,-1.404039999999999955e+00,9.973819999999999908e-02,2.893470000000000208e-01,-1.352500000000000036e+00,-1.624839999999999895e-01,4.503710000000000213e-01,-1.458650000000000002e+00,6.212619999999999948e-02,8.610940000000000261e-01,-1.348680000000000101e+00
9.000000000000000000e+00,4.499999999999999833e-02,-1.339208138067282228e+00,-3.702646064232122392e-01,5.934844340070952740e-01,2.056555284698039290e-03,3.638703338690897886e-03,-8.576044753678948585e-01,5.186844804690192712e-01,3.303051439620563468e-01,7.410284262221414897e-01,8.731937655017972533e-02,-9.588850000000000151e-02,8.314470000000000471e-01,-1.405529999999999946e+00,9.969400000000000484e-02,2.948779999999999735e-01,-1.372670000000000057e+00,-1.623070000000000068e-01,4.572300000000000253e-01,-1.476669999999999927e+00,6.097570000000000073e-02,8.551210000000000200e-01,-1.350570000000000048e+00
1.000000000000000000e+01,5.000000000000000278e-02,-1.337550813199953836e+00,-3.666369928814495749e-01,5.939426362094257783e-01,1.798807552216519397e-03,3.803606109029350393e-03,-8.578796545356861536e-01,5.182289949798002393e-01,3.326252671629646440e-01,7.100164190064152114e-01,9.596118090671022782e-02,-9.473810000000000564e-02,8.236149999999999860e-01,-1.407599999999999962e+00,9.982670000000000432e-02,3.067369999999999819e-01,-1.407829999999999915e+00,-1.623070000000000068e-01,4.689999999999999725e-01,-1.507509999999999906e+00,6.026770000000000044e-02,8.460490000000000510e-01,-1.353630000000000111e+00
1.100000000000000000e+01,5.500000000000000028e-02,-1.335906285354252709e+00,-3.630829841202740105e-01,5.944514432051665187e-01,1.578544192494015820e-03,4.026906385864780467e-03,-8.581233904870915197e-01,5.178243282757338806e-01,3.251922996220010798e-01,7.115866941091244513e-01,1.075624172758541525e-01,-9.433980000000000143e-02,8.185259999999999758e-01,-1.408579999999999943e+00,9.991529999999999856e-02,3.174009999999999887e-01,-1.434460000000000068e+00,-1.622629999999999906e-01,4.782040000000000179e-01,-1.530380000000000074e+00,6.026770000000000044e-02,8.402079999999999549e-01,-1.355269999999999975e+00
1.200000000000000000e+01,5.999999999999999778e-02,-1.334291020056469934e+00,-3.595458005226624398e-01,5.949973687127587674e-01,1.485535303730935869e-03,4.146395314902438095e-03,-8.583795379781830048e-01,5.173989422130659266e-01,3.209149451001702125e-01,7.032865085185570075e-01,1.108078440959894134e-01,-9.403010000000000534e-02,8.130389999999999562e-01,-1.408900000000000041e+00,9.951699999999999435e-02,3.293490000000000029e-01,-1.462250000000000050e+00,-1.620409999999999906e-01,4.889560000000000017e-01,-1.554859999999999909e+00,6.009069999999999689e-02,8.346329999999999583e-01,-1.356090000000000018e+00
1.300000000000000000e+01,6.500000000000000222e-02,-1.332712405388070787e+00,-3.560549923932745942e-01,5.955389637216147447e-01,1.440269048986286696e-03,4.239942261471010658e-03,-8.586009531247232873e-01,5.170307997016108104e-01,3.105307533149819776e-01,6.930373931036396540e-01,1.058302770586927594e-01,-9.256979999999999376e-02,8.043219999999999814e-01,-1.408409999999999940e+00,9.818949999999999900e-02,3.527120000000000255e-01,-1.505279999999999951e+00,-1.618640000000000079e-01,5.078070000000000084e-01,-1.593150000000000066e+00,5.978100000000000080e-02,8.260490000000000332e-01,-1.355890000000000040e+00
1.400000000000000000e+01,7.000000000000000666e-02,-1.331159296740613396e+00,-3.526299004497083223e-01,5.960562064337416865e-01,1.461113609897825598e-03,4.335135624818323326e-03,-8.588118928858486933e-01,5.166794948670243581e-01,3.107110015872219799e-01,6.769979976774602726e-01,1.010663207845007849e-01,-9.159639999999999449e-02,7.962249999999999606e-01,-1.408150000000000013e+00,9.841080000000000660e-02,3.804119999999999724e-01,-1.548040000000000083e+00,-1.618640000000000079e-01,5.290909999999999780e-01,-1.629969999999999919e+00,5.902879999999999933e-02,8.165790000000000548e-01,-1.355329999999999924e+00
1.500000000000000000e+01,7.499999999999999722e-02,-1.329611549327518016e+00,-3.492602022983390397e-01,5.965548100298347922e-01,1.326938882319045462e-03,4.622945396712982609e-03,-8.590112500268489715e-01,5.163458491829449049e-01,3.083912685581235436e-01,6.708788221963656317e-01,9.837496442067678037e-02,-9.044589999999999574e-02,7.906050000000000022e-01,-1.408179999999999987e+00,9.841080000000000660e-02,3.998820000000000152e-01,-1.576770000000000005e+00,-1.618640000000000079e-01,5.459939999999999793e-01,-1.653759999999999897e+00,5.854199999999999682e-02,8.102960000000000163e-01,-1.355269999999999975e+00
1.600000000000000000e+01,8.000000000000000167e-02,-1.328065783602602856e+00,-3.459153631068259127e-01,5.970499262448032418e-01,1.168021790274717617e-03,4.926906393537951352e-03,-8.592127679631933468e-01,5.160080200148046137e-01,3.099194677385837537e-01,6.670536633042375430e-01,9.967114983777927706e-02,-8.818910000000000637e-02,7.814889999999999892e-01,-1.408179999999999987e+00,9.832230000000000136e-02,4.319189999999999974e-01,-1.620090000000000030e+00,-1.617319999999999869e-01,5.736499999999999932e-01,-1.688830000000000053e+00,5.778980000000000228e-02,8.008260000000000378e-01,-1.355609999999999982e+00
1.700000000000000000e+01,8.500000000000000611e-02,-1.326517442465383834e+00,-3.425960735856739547e-01,5.975517401227863346e-01,9.744946837380409144e-04,5.264098267530924538e-03,-8.593687099854069311e-01,5.157453402209692950e-01,3.094220746181019499e-01,6.606590153233888874e-01,1.010540586153949039e-01,-8.681740000000000290e-02,7.760470000000000423e-01,-1.408179999999999987e+00,9.836649999999999561e-02,4.536009999999999764e-01,-1.648719999999999963e+00,-1.614659999999999984e-01,5.926329999999999654e-01,-1.711549999999999905e+00,5.725879999999999859e-02,7.947199999999999820e-01,-1.355669999999999931e+00
1.800000000000000000e+01,8.999999999999999667e-02,-1.324970234768890087e+00,-3.393228304652391447e-01,5.980634100422467236e-01,8.064856287517712568e-04,5.524408172386468564e-03,-8.595605404785893189e-01,5.154231308153676139e-01,3.094643259723978135e-01,6.486358824387903343e-01,1.036133629632739472e-01,-8.544569999999999943e-02,7.678160000000000540e-01,-1.408120000000000038e+00,9.805679999999999952e-02,4.891329999999999845e-01,-1.689079999999999915e+00,-1.609790000000000110e-01,6.219259999999999788e-01,-1.744669999999999943e+00,5.708180000000000198e-02,7.862240000000000339e-01,-1.355639999999999956e+00
1.900000000000000000e+01,9.500000000000000111e-02,-1.323429591696773322e+00,-3.360820014930581134e-01,5.985663103472478319e-01,7.941137058755906629e-04,5.864981723040164213e-03,-8.597414644802119366e-01,5.151175415944556635e-01,3.067954720916281630e-01,6.476919345098737235e-01,9.754683953013018605e-02,-8.464919999999999389e-02,7.621520000000000516e-01,-1.408090000000000064e+00,9.810099999999999376e-02,5.139129999999999532e-01,-1.713750000000000107e+00,-1.610679999999999890e-01,6.411740000000000217e-01,-1.765349999999999975e+00,5.712600000000000317e-02,7.803390000000000049e-01,-1.355609999999999982e+00
2.000000000000000000e+01,1.000000000000000056e-01,-1.321900093730626002e+00,-3.328472206313415893e-01,5.990440873947373568e-01,7.900628043173148034e-04,6.163674370423649282e-03,-8.599205849934404844e-01,5.148149846844441990e-01,3.050059218683025541e-01,6.462168104762100462e-01,9.356395376637618999e-02,-8.380849999999999411e-02,7.538780000000000481e-01,-1.407950000000000035e+00,9.783550000000000579e-02,5.521000000000000352e-01,-1.746380000000000043e+00,-1.604039999999999910e-01,6.731669999999999598e-01,-1.793940000000000090e+00,5.712600000000000317e-02,7.711350000000000149e-01,-1.355499999999999927e+00
2.100000000000000000e+01,1.049999999999999961e-01,-1.320379345914726832e+00,-3.296191238369044485e-01,5.994841908804692254e-01,8.529559742919905858e-04,6.352264059666147718e-03,-8.600820970499404305e-01,5.145427130702403540e-01,3.032936328629818323e-01,6.450196412658473211e-01,8.247739345899038343e-02,-8.310049999999999382e-02,7.482579999999999787e-01,-1.407780000000000031e+00,9.730450000000000210e-02,5.787830000000000474e-01,-1.764869999999999939e+00,-1.601390000000000036e-01,6.948490000000000499e-01,-1.811190000000000078e+00,5.694899999999999962e-02,7.650730000000000031e-01,-1.355439999999999978e+00
2.200000000000000000e+01,1.100000000000000006e-01,-1.318858865675929248e+00,-3.263994976624705613e-01,5.998623010213247619e-01,9.293439143032608237e-04,6.539286604675021049e-03,-8.602381020129783451e-01,5.142793773113834011e-01,3.048986093082193261e-01,6.428283221285353566e-01,6.876650618608433352e-02,-8.212700000000000555e-02,7.396300000000000097e-01,-1.407350000000000101e+00,9.717180000000000262e-02,6.205979999999999830e-01,-1.788790000000000102e+00,-1.599619999999999931e-01,7.286559999999999704e-01,-1.834109999999999907e+00,5.650650000000000117e-02,7.561350000000000016e-01,-1.355329999999999924e+00
2.300000000000000000e+01,1.150000000000000050e-01,-1.317335098539461180e+00,-3.231912105754348730e-01,6.001784353855316168e-01,9.610641306952017035e-04,6.690982862165623449e-03,-8.604130202619855172e-01,5.139846667944558689e-01,3.046086349161772899e-01,6.404847040330570174e-01,5.768713596501470059e-02,-8.146319999999999950e-02,7.344079999999999497e-01,-1.406970000000000054e+00,9.690630000000000077e-02,6.484760000000000524e-01,-1.801940000000000097e+00,-1.595630000000000104e-01,7.516650000000000276e-01,-1.847029999999999950e+00,5.606400000000000272e-02,7.503819999999999935e-01,-1.355159999999999920e+00
2.400000000000000000e+01,1.199999999999999956e-01,-1.315810916039265255e+00,-3.199877811499225455e-01,6.004398009378471013e-01,1.043676129307078608e-03,6.897687708002087081e-03,-8.605096130421482359e-01,5.138200410051725342e-01,3.050648417884202490e-01,6.408842430952979008e-01,4.685911350668661712e-02,-8.079949999999999632e-02,7.288329999999999531e-01,-1.406539999999999901e+00,9.606549999999999812e-02,6.766180000000000527e-01,-1.813809999999999922e+00,-1.589000000000000135e-01,7.751179999999999737e-01,-1.858230000000000048e+00,5.588710000000000205e-02,7.446300000000000141e-01,-1.354989999999999917e+00
2.500000000000000000e+01,1.250000000000000000e-01,-1.314288669506843865e+00,-3.167713179339608498e-01,6.006672291573822431e-01,1.061435951855780506e-03,7.044361438521471591e-03,-8.606179004080466433e-01,5.136366184911020927e-01,3.038350476100320496e-01,6.456990577793507713e-01,4.411241923786273639e-02,-7.987020000000000231e-02,7.203370000000000051e-01,-1.405790000000000095e+00,9.495929999999999649e-02,7.190539999999999710e-01,-1.828770000000000007e+00,-1.577050000000000118e-01,8.105170000000000430e-01,-1.871899999999999897e+00,5.588710000000000205e-02,7.363110000000000488e-01,-1.354729999999999990e+00
2.600000000000000000e+01,1.300000000000000044e-01,-1.312766841287684505e+00,-3.135451636209998783e-01,6.008597154961746734e-01,1.133678986248103093e-03,7.114086293032268089e-03,-8.607119096305932970e-01,5.134779539574350071e-01,3.048958537688423731e-01,6.447613905555309444e-01,3.288210011739770705e-02,-7.916230000000000488e-02,7.108229999999999826e-01,-1.404840000000000089e+00,9.349910000000000165e-02,7.678160000000000540e-01,-1.841380000000000017e+00,-1.557139999999999913e-01,8.524209999999999843e-01,-1.883690000000000087e+00,5.579850000000000088e-02,7.268409999999999593e-01,-1.354540000000000077e+00
2.700000000000000000e+01,1.350000000000000089e-01,-1.311250468630757560e+00,-3.103126665571784848e-01,6.010001989995854554e-01,1.239255280876651669e-03,7.215565710078283672e-03,-8.607932861081508680e-01,5.133398625482424871e-01,3.016528858340778996e-01,6.482357581104579713e-01,2.331142715767873380e-02,-7.867549999999999544e-02,7.052920000000000300e-01,-1.404439999999999911e+00,9.256979999999999376e-02,7.969770000000000465e-01,-1.845630000000000104e+00,-1.543420000000000070e-01,8.769360000000000488e-01,-1.888849999999999918e+00,5.540029999999999955e-02,7.213100000000000067e-01,-1.354510000000000103e+00
2.800000000000000000e+01,1.400000000000000133e-01,-1.309744555351512574e+00,-3.070600550918421989e-01,6.010818285808132710e-01,1.400064637552222296e-03,7.265740364834340388e-03,-8.608674616383377165e-01,5.132143395896218152e-01,3.007113307710098105e-01,6.528074154580569832e-01,9.340564225035376603e-03,-7.779049999999999854e-02,6.973270000000000302e-01,-1.404009999999999980e+00,9.186189999999999634e-02,8.400760000000000449e-01,-1.848379999999999912e+00,-1.515100000000000058e-01,9.110519999999999730e-01,-1.894169999999999909e+00,5.442679999999999740e-02,7.125050000000000550e-01,-1.354249999999999954e+00
2.900000000000000000e+01,1.449999999999999900e-01,-1.308225380605755328e+00,-3.037931535925176285e-01,6.011108020176288980e-01,1.538931216765406732e-03,7.252262936906260678e-03,-8.609220736986448186e-01,5.131225150229858922e-01,3.069568390462923957e-01,6.539521366068029584e-01,2.249098065056433487e-03,-7.734800000000000009e-02,6.924599999999999644e-01,-1.403869999999999951e+00,9.071139999999999759e-02,8.674220000000000264e-01,-1.848740000000000050e+00,-1.489880000000000093e-01,9.336630000000000207e-01,-1.895960000000000090e+00,5.407279999999999726e-02,7.072389999999999510e-01,-1.354079999999999950e+00
3.000000000000000000e+01,1.499999999999999944e-01,-1.306683455374095360e+00,-3.005176540001567309e-01,6.011054004445710586e-01,1.643713555332472270e-03,7.246667976590442234e-03,-8.609812199256494658e-01,5.130230199283563053e-01,3.098120269783472547e-01,6.562469090034290797e-01,-4.409598383592033821e-03,-7.708249999999999824e-02,6.841850000000000431e-01,-1.403780000000000028e+00,8.889710000000000667e-02,9.075119999999999854e-01,-1.847390000000000088e+00,-1.454479999999999940e-01,9.672929999999999584e-01,-1.895659999999999901e+00,5.389580000000000065e-02,6.993629999999999569e-01,-1.353939999999999921e+00
3.100000000000000000e+01,1.549999999999999989e-01,-1.305133469577984595e+00,-2.972317086146432641e-01,6.010674209146930069e-01,1.830036248456514856e-03,7.272341368873484584e-03,-8.609996668580905954e-01,5.129910659267722384e-01,3.101802123643899178e-01,6.581295739619572593e-01,-1.078211794554285313e-02,-7.690550000000000164e-02,6.783879999999999910e-01,-1.403720000000000079e+00,8.801209999999999589e-02,9.326010000000000133e-01,-1.845660000000000078e+00,-1.432350000000000012e-01,9.885770000000000390e-01,-1.893909999999999982e+00,5.363029999999999881e-02,6.939640000000000253e-01,-1.353939999999999921e+00
3.200000000000000000e+01,1.600000000000000033e-01,-1.303569747202152351e+00,-2.939356625921156763e-01,6.009985437288555277e-01,2.016665795861037613e-03,7.314900320793916652e-03,-8.610436615497607526e-01,5.129159134102106998e-01,3.153068055976823714e-01,6.602867937869696391e-01,-1.676842214782315113e-02,-7.659580000000000555e-02,6.701580000000000314e-01,-1.403639999999999999e+00,8.562269999999999603e-02,9.677350000000000119e-01,-1.841709999999999958e+00,-1.385889999999999900e-01,1.017379999999999951e+00,-1.889010000000000078e+00,5.340910000000000102e-02,6.855569999999999720e-01,-1.353879999999999972e+00
3.300000000000000000e+01,1.650000000000000078e-01,-1.301984845506412691e+00,-2.906248715199777344e-01,6.009016591585024658e-01,2.143791319769614793e-03,7.393199895032298748e-03,-8.610806818470709834e-01,5.128521230685876287e-01,3.186529489026039830e-01,6.640276234639600483e-01,-2.198516075974783074e-02,-7.637449999999999795e-02,6.648920000000000385e-01,-1.403550000000000075e+00,8.416239999999999832e-02,9.894180000000000197e-01,-1.837309999999999999e+00,-1.354480000000000128e-01,1.035840000000000094e+00,-1.883860000000000090e+00,5.332060000000000272e-02,6.798480000000000079e-01,-1.353799999999999892e+00
3.400000000000000000e+01,1.700000000000000122e-01,-1.300393408374089343e+00,-2.872954618491393441e-01,6.007886636273405134e-01,2.328597568558228234e-03,7.409698412116698558e-03,-8.611215345546027189e-01,5.127824809421793750e-01,3.179196006831674359e-01,6.677345368771675505e-01,-2.321295075610185776e-02,-7.606480000000000186e-02,6.560869999999999758e-01,-1.403380000000000072e+00,8.155170000000000474e-02,1.019819999999999949e+00,-1.827509999999999968e+00,-1.313769999999999938e-01,1.061460000000000070e+00,-1.873280000000000056e+00,5.314359999999999917e-02,6.709100000000000064e-01,-1.353660000000000085e+00
3.500000000000000000e+01,1.750000000000000167e-01,-1.298791938006376601e+00,-2.839461215252747639e-01,6.006597778043379909e-01,2.591457753189476635e-03,7.438285187962737598e-03,-8.611570217841884034e-01,5.127212070161015767e-01,3.226655462048356182e-01,6.719991530322777518e-01,-2.834081732516659236e-02,-7.584359999999999713e-02,6.501130000000000519e-01,-1.403319999999999901e+00,7.951629999999999809e-02,1.038180000000000103e+00,-1.819360000000000088e+00,-1.286770000000000136e-01,1.076009999999999911e+00,-1.864500000000000046e+00,5.296660000000000257e-02,6.647149999999999448e-01,-1.353550000000000031e+00
3.600000000000000000e+01,1.799999999999999933e-01,-1.297168418824185210e+00,-2.805760849966383308e-01,6.004991274831416037e-01,2.794250727426190756e-03,7.538974503045321046e-03,-8.611723140931796250e-01,5.126929856140007846e-01,3.267404622029954631e-01,6.760127845370823563e-01,-3.591888717251885688e-02,-7.548960000000000392e-02,6.413510000000000044e-01,-1.403210000000000068e+00,7.650730000000000031e-02,1.060789999999999900e+00,-1.804720000000000102e+00,-1.234559999999999963e-01,1.095040000000000013e+00,-1.848440000000000083e+00,5.265679999999999666e-02,6.555109999999999548e-01,-1.353350000000000053e+00
3.700000000000000000e+01,1.849999999999999978e-01,-1.295530755240181797e+00,-2.771902961052918890e-01,6.003322262858555858e-01,3.059224772372174175e-03,7.461191607922482150e-03,-8.612304350689432564e-01,5.125949721823517269e-01,3.283202274862503378e-01,6.783014784538448083e-01,-3.084139610286200373e-02,-7.535680000000000156e-02,6.351569999999999716e-01,-1.403149999999999897e+00,7.394080000000000097e-02,1.073579999999999979e+00,-1.793619999999999992e+00,-1.197830000000000006e-01,1.105969999999999898e+00,-1.836300000000000043e+00,5.247980000000000006e-02,6.494050000000000100e-01,-1.353210000000000024e+00
3.800000000000000000e+01,1.900000000000000022e-01,-1.293884322176904522e+00,-2.737931319985721368e-01,6.001798599281412683e-01,3.310338851711645131e-03,7.451587224203468258e-03,-8.612620272160345092e-01,5.125404686581722657e-01,3.302493722634783357e-01,6.805621316263101850e-01,-3.010491175544486447e-02,-7.517980000000000496e-02,6.260850000000000026e-01,-1.402979999999999894e+00,6.982560000000000155e-02,1.088889999999999914e+00,-1.774820000000000064e+00,-1.146500000000000019e-01,1.118139999999999912e+00,-1.816270000000000051e+00,5.234710000000000057e-02,6.400679999999999703e-01,-1.352810000000000068e+00
3.900000000000000000e+01,1.950000000000000067e-01,-1.292228804124618824e+00,-2.703834265118427171e-01,6.000245390907437137e-01,3.488454087103646552e-03,7.416305829681365050e-03,-8.612757139411325591e-01,5.125167994351016443e-01,3.319551723996971293e-01,6.833190968604615501e-01,-3.202326678604269089e-02,-7.535680000000000156e-02,6.198019999999999641e-01,-1.402830000000000021e+00,6.703789999999999749e-02,1.096060000000000034e+00,-1.761160000000000059e+00,-1.108009999999999967e-01,1.123709999999999987e+00,-1.801260000000000083e+00,5.247980000000000006e-02,6.339620000000000255e-01,-1.352500000000000036e+00
4.000000000000000000e+01,2.000000000000000111e-01,-1.290562338240930806e+00,-2.669569757434421264e-01,5.998748937260203196e-01,3.730901100601106881e-03,7.364488084858345808e-03,-8.613121067538633824e-01,5.124546765164037510e-01,3.346270995441947838e-01,6.872597396438696604e-01,-2.783456402609741157e-02,-7.540109999999999868e-02,6.102440000000000087e-01,-1.402579999999999938e+00,6.252449999999999675e-02,1.103849999999999998e+00,-1.738510000000000000e+00,-1.049149999999999944e-01,1.129329999999999945e+00,-1.777840000000000087e+00,5.252409999999999718e-02,6.249789999999999512e-01,-1.351820000000000022e+00
4.100000000000000000e+01,2.050000000000000155e-01,-1.288885594582552585e+00,-2.635167228021156327e-01,5.997324880046577267e-01,3.889430842393977201e-03,7.299521305032124346e-03,-8.613386313148351237e-01,5.124098433414516762e-01,3.360676831984154012e-01,6.888410158791239413e-01,-2.912762620721967566e-02,-7.548960000000000392e-02,6.040489999999999471e-01,-1.402290000000000036e+00,5.964830000000000132e-02,1.106680000000000108e+00,-1.722739999999999938e+00,-1.011539999999999939e-01,1.130929999999999991e+00,-1.761390000000000011e+00,5.252409999999999718e-02,6.186960000000000237e-01,-1.351280000000000037e+00
4.200000000000000000e+01,2.099999999999999922e-01,-1.287203205389281235e+00,-2.600737924639581755e-01,5.995788795131611337e-01,3.973426457778221968e-03,7.326536512459531220e-03,-8.613586811997723247e-01,5.123751087814377714e-01,3.368870859458718003e-01,6.883301012634694960e-01,-3.231576104601962401e-02,-7.540109999999999868e-02,5.977219999999999756e-01,-1.401799999999999935e+00,5.686050000000000132e-02,1.107210000000000027e+00,-1.705699999999999994e+00,-9.726029999999999398e-02,1.130840000000000067e+00,-1.744410000000000016e+00,5.247980000000000006e-02,6.123239999999999794e-01,-1.350689999999999946e+00
4.300000000000000000e+01,2.149999999999999967e-01,-1.285515164911987807e+00,-2.566259863925532958e-01,5.994162163661191922e-01,4.045176208251227180e-03,7.314437388445655004e-03,-8.613645088249283210e-01,5.123649231983096186e-01,3.383280026636208415e-01,6.907919010645159341e-01,-3.274943940587533159e-02,-7.540109999999999868e-02,5.882960000000000411e-01,-1.400560000000000027e+00,5.278959999999999902e-02,1.105879999999999974e+00,-1.678339999999999943e+00,-9.181759999999999922e-02,1.128449999999999953e+00,-1.717719999999999914e+00,5.247980000000000006e-02,6.027660000000000240e-01,-1.349779999999999980e+00
4.400000000000000000e+01,2.200000000000000011e-01,-1.283813694418527440e+00,-2.531647230445285279e-01,5.992260291451974030e-01,4.071176674453079458e-03,7.254455932389346218e-03,-8.613929256667103296e-01,5.123177939843986950e-01,3.422595613382043989e-01,6.937138644392759623e-01,-4.332541319250331896e-02,-7.517980000000000496e-02,5.787390000000000034e-01,-1.398760000000000003e+00,4.960359999999999769e-02,1.102170000000000094e+00,-1.649370000000000003e+00,-8.721569999999999323e-02,1.124470000000000081e+00,-1.689019999999999966e+00,5.221429999999999821e-02,5.934739999999999460e-01,-1.348910000000000053e+00
4.500000000000000000e+01,2.250000000000000056e-01,-1.282099242742860357e+00,-2.496937806453891351e-01,5.989974926134378208e-01,4.042765295080322403e-03,7.208974241713648166e-03,-8.613639475687235869e-01,5.123673804996384806e-01,3.435210890388385452e-01,6.946639186584961934e-01,-4.808921202139110340e-02,-7.487009999999999499e-02,5.723669999999999591e-01,-1.397550000000000070e+00,4.783369999999999983e-02,1.098049999999999971e+00,-1.630160000000000053e+00,-8.456070000000000253e-02,1.121059999999999945e+00,-1.669869999999999965e+00,5.194880000000000331e-02,5.874110000000000165e-01,-1.348430000000000017e+00
4.600000000000000000e+01,2.300000000000000100e-01,-1.280381404515319677e+00,-2.462169822813512488e-01,5.987481180986017337e-01,3.980082344061394196e-03,7.166534589810666031e-03,-8.613702500763210645e-01,5.123578710647945789e-01,3.436146854361555314e-01,6.960564742174815134e-01,-5.166062173151687864e-02,-7.447180000000000466e-02,5.628969999999999807e-01,-1.395780000000000021e+00,4.526720000000000049e-02,1.090309999999999890e+00,-1.601369999999999960e+00,-8.097650000000000681e-02,1.113979999999999970e+00,-1.641059999999999963e+00,5.177190000000000264e-02,5.782960000000000322e-01,-1.347890000000000033e+00
4.700000000000000000e+01,2.350000000000000144e-01,-1.278655834788391843e+00,-2.427364780169376235e-01,5.984720853330669499e-01,3.822292529942771227e-03,7.066238801857138707e-03,-8.613514717959874778e-01,5.123920339115176636e-01,3.466143697811377988e-01,6.961476164365527630e-01,-5.875256893079200404e-02,-7.425059999999999993e-02,5.564369999999999594e-01,-1.394630000000000036e+00,4.380699999999999872e-02,1.084070000000000089e+00,-1.582100000000000062e+00,-7.889680000000000304e-02,1.108270000000000088e+00,-1.621890000000000054e+00,5.163910000000000028e-02,5.726759999999999629e-01,-1.347639999999999949e+00
4.800000000000000000e+01,2.399999999999999911e-01,-1.276918492814073547e+00,-2.392523521971189060e-01,5.981700703027956756e-01,3.577585671615878243e-03,6.937289331122861030e-03,-8.613606708890872987e-01,5.123800987305078269e-01,3.483246227362198910e-01,6.975063163288911516e-01,-6.205362686278131229e-02,-7.402930000000000621e-02,5.499760000000000204e-01,-1.393450000000000077e+00,4.265649999999999997e-02,1.076850000000000085e+00,-1.562780000000000058e+00,-7.694979999999999876e-02,1.101769999999999916e+00,-1.602780000000000094e+00,5.150640000000000079e-02,5.669239999999999835e-01,-1.347520000000000051e+00
4.900000000000000000e+01,2.449999999999999956e-01,-1.275176124659164856e+00,-2.357589570417025493e-01,5.978537065573186204e-01,3.352481491285982853e-03,6.822024739279307359e-03,-8.613476572299042511e-01,5.124050451185542254e-01,3.486246960575811737e-01,6.998550896702681046e-01,-6.449204632915389590e-02,-7.376380000000000436e-02,5.406400000000000095e-01,-1.391340000000000021e+00,4.150600000000000123e-02,1.065129999999999910e+00,-1.535139999999999949e+00,-7.429479999999999418e-02,1.090529999999999999e+00,-1.575409999999999977e+00,5.146209999999999674e-02,5.585609999999999742e-01,-1.347469999999999946e+00
5.000000000000000000e+01,2.500000000000000000e-01,-1.273426898916110162e+00,-2.322591124018228426e-01,5.975153916008960620e-01,3.015586253800481287e-03,6.711272592082587717e-03,-8.613262228074292093e-01,5.124446301758974753e-01,3.510689037860360018e-01,7.000866260657347961e-01,-7.083414118412185989e-02,-7.345409999999999440e-02,5.310380000000000100e-01,-1.388759999999999994e+00,4.070950000000000263e-02,1.051460000000000061e+00,-1.507120000000000015e+00,-7.239210000000000089e-02,1.077700000000000102e+00,-1.547979999999999912e+00,5.146209999999999674e-02,5.501979999999999649e-01,-1.347409999999999997e+00
5.100000000000000000e+01,2.550000000000000044e-01,-1.271661063089136068e+00,-2.287512715367878147e-01,5.971447506089337942e-01,2.723544830052480360e-03,6.651385260849237285e-03,-8.612899221919000370e-01,5.125080558785648499e-01,3.552684593686938896e-01,7.030526778465948645e-01,-7.742275481688680461e-02,-7.301159999999999595e-02,5.244889999999999830e-01,-1.387019999999999920e+00,4.048820000000000197e-02,1.042070000000000052e+00,-1.488439999999999985e+00,-7.155140000000000111e-02,1.068929999999999936e+00,-1.529879999999999907e+00,5.119660000000000183e-02,5.446220000000000505e-01,-1.347409999999999997e+00
5.200000000000000000e+01,2.600000000000000089e-01,-1.269870798204034257e+00,-2.252273798308312702e-01,5.967371915857068165e-01,2.391403190637646139e-03,6.545497342671708664e-03,-8.612443936193783234e-01,5.125875809523589011e-01,3.608405239631754524e-01,7.065077438239187879e-01,-8.560157578046305449e-02,-7.230359999999999565e-02,5.147540000000000449e-01,-1.384649999999999936e+00,4.022270000000000012e-02,1.027209999999999956e+00,-1.460990000000000011e+00,-7.017959999999999476e-02,1.055439999999999934e+00,-1.502879999999999994e+00,5.093109999999999998e-02,5.361709999999999532e-01,-1.347380000000000022e+00
5.300000000000000000e+01,2.650000000000000133e-01,-1.268057338135626377e+00,-2.216917748971518332e-01,5.962853737859664660e-01,2.007701667379215450e-03,6.492335628839845767e-03,-8.611874743250466091e-01,5.126855262339959918e-01,3.645474284007793053e-01,7.077375707805805272e-01,-9.512600968380617583e-02,-7.177260000000000584e-02,5.082489999999999508e-01,-1.383099999999999996e+00,4.026699999999999724e-02,1.016369999999999996e+00,-1.442539999999999933e+00,-6.956009999999999971e-02,1.045530000000000070e+00,-1.484580000000000011e+00,5.084260000000000168e-02,5.305509999999999948e-01,-1.347380000000000022e+00
5.400000000000000000e+01,2.700000000000000178e-01,-1.266224749763900537e+00,-2.181493119909101441e-01,5.958007371937039665e-01,1.670038007278538657e-03,6.401189919933256145e-03,-8.611267490789877854e-01,5.127898729434913205e-01,3.684915313557267091e-01,7.092515672449666297e-01,-9.872906675892394179e-02,-7.119739999999999402e-02,4.986909999999999954e-01,-1.380479999999999929e+00,4.022270000000000012e-02,9.987979999999999636e-01,-1.415470000000000006e+00,-6.933889999999999498e-02,1.029460000000000042e+00,-1.458800000000000097e+00,5.084260000000000168e-02,5.223200000000000065e-01,-1.347350000000000048e+00
5.500000000000000000e+01,2.750000000000000222e-01,-1.264368276282859638e+00,-2.146009829477907582e-01,5.952945603175552325e-01,1.256531396996811260e-03,6.306544011340475299e-03,-8.610943895921649993e-01,5.128465627031764118e-01,3.741023383452948270e-01,7.100844896928728556e-01,-1.037423319916264131e-01,-7.097610000000000030e-02,4.922309999999999741e-01,-1.378509999999999902e+00,4.022270000000000012e-02,9.867629999999999457e-01,-1.397899999999999920e+00,-6.902909999999999602e-02,1.017959999999999976e+00,-1.441640000000000033e+00,5.084260000000000168e-02,5.166570000000000329e-01,-1.347329999999999917e+00
5.600000000000000000e+01,2.800000000000000266e-01,-1.262485361215802904e+00,-2.110430488994698706e-01,5.947622213513945599e-01,8.622936958139974361e-04,6.226312374709250946e-03,-8.610566827201345808e-01,5.129116636019083186e-01,3.790679275489750588e-01,7.130932036055753764e-01,-1.091940098914822299e-01,-7.057789999999999897e-02,4.824519999999999920e-01,-1.375399999999999956e+00,4.022270000000000012e-02,9.677350000000000119e-01,-1.372589999999999977e+00,-6.880790000000000517e-02,9.997719999999999940e-01,-1.417310000000000070e+00,5.079840000000000050e-02,5.080719999999999681e-01,-1.347299999999999942e+00
5.700000000000000000e+01,2.850000000000000311e-01,-1.260573997599238938e+00,-2.074690475160543557e-01,5.942067289175153588e-01,4.890646764705643438e-04,6.127354109311850157e-03,-8.610128868982044326e-01,5.129868623801843164e-01,3.854814785185499693e-01,7.165117143062842420e-01,-1.130038462783871517e-01,-7.009110000000000340e-02,4.689559999999999840e-01,-1.371329999999999938e+00,4.013420000000000182e-02,9.422030000000000127e-01,-1.341150000000000064e+00,-6.894060000000000465e-02,9.748599999999999488e-01,-1.386249999999999982e+00,5.124089999999999895e-02,4.962130000000000152e-01,-1.347269999999999968e+00
5.800000000000000000e+01,2.899999999999999800e-01,-1.258633940852868838e+00,-2.038758576444358317e-01,5.936224726873173818e-01,1.618143075368121033e-04,6.074213143728236959e-03,-8.609607341012130988e-01,5.130752265689696445e-01,3.905445603566016777e-01,7.207673568526749008e-01,-1.206993672400737128e-01,-6.995840000000000392e-02,4.654159999999999964e-01,-1.370389999999999997e+00,4.017849999999999894e-02,9.357429999999999914e-01,-1.334189999999999987e+00,-6.898490000000000177e-02,9.685759999999999925e-01,-1.379080000000000084e+00,5.128510000000000013e-02,4.932929999999999815e-01,-1.347269999999999968e+00
5.900000000000000000e+01,2.949999999999999845e-01,-1.256667521001054721e+00,-2.002663391309136287e-01,5.930185275307886528e-01,-2.828832162735682768e-04,6.012295315464203337e-03,-8.608827789310125045e-01,5.132066925267324553e-01,3.960289561487946863e-01,7.230449152598222851e-01,-1.208795393387869233e-01,-6.960439999999999683e-02,4.587780000000000191e-01,-1.368519999999999959e+00,3.964750000000000218e-02,9.287959999999999550e-01,-1.322060000000000013e+00,-6.889639999999999653e-02,9.563190000000000301e-01,-1.365760000000000085e+00,5.150640000000000079e-02,4.871860000000000079e-01,-1.347269999999999968e+00
6.000000000000000000e+01,2.999999999999999889e-01,-1.254627995890964742e+00,-1.966663576344933051e-01,5.924374893897588201e-01,-8.708759971967001186e-04,6.105843189701354139e-03,-8.607622423163950875e-01,5.134070689895853246e-01,4.197923126276874584e-01,7.169538538029837094e-01,-1.115396300766732657e-01,-6.916189999999999838e-02,4.520970000000000266e-01,-1.366610000000000102e+00,3.659430000000000321e-02,9.322470000000000478e-01,-1.315709999999999935e+00,-6.880790000000000517e-02,9.448140000000000427e-01,-1.353909999999999947e+00,5.225860000000000227e-02,4.812569999999999903e-01,-1.347239999999999993e+00
6.100000000000000000e+01,3.049999999999999933e-01,-1.252469069532634816e+00,-1.930973602156777769e-01,5.919367149172477527e-01,-1.906757114648124354e-03,6.622526380531543883e-03,-8.606417548854046196e-01,5.135998171743261231e-01,4.438063673031585887e-01,7.106490427015779154e-01,-8.877917652385046432e-02,-6.832109999999999572e-02,4.417420000000000235e-01,-1.363429999999999920e+00,3.385080000000000033e-02,9.320699999999999541e-01,-1.320049999999999946e+00,-6.398470000000000546e-02,9.455219999999999736e-01,-1.344000000000000083e+00,5.385159999999999947e-02,4.724510000000000098e-01,-1.347069999999999990e+00
6.200000000000000000e+01,3.099999999999999978e-01,-1.250316430535526546e+00,-1.895305753697945905e-01,5.916274328569467444e-01,-2.477984226079976704e-03,6.525707689011274633e-03,-8.604759523736461579e-01,5.138763529800572938e-01,4.172637487980330739e-01,7.160748895724140528e-01,-3.493042924521602699e-02,-6.938310000000000310e-02,4.302819999999999978e-01,-1.359210000000000029e+00,3.517830000000000262e-02,9.202559999999999629e-01,-1.337509999999999977e+00,-5.743580000000000213e-02,9.507440000000000335e-01,-1.348940000000000028e+00,5.442679999999999740e-02,4.632029999999999759e-01,-1.346200000000000063e+00
6.300000000000000000e+01,3.150000000000000022e-01,-1.248235796155773514e+00,-1.859829080672707746e-01,5.915423698518506024e-01,-2.961706003813039442e-03,6.134738737002337454e-03,-8.601770708015535893e-01,5.143787477895251925e-01,4.149985678382061560e-01,7.030080679017246537e-01,9.079078296755971117e-04,-6.871939999999999993e-02,4.211219999999999963e-01,-1.355299999999999949e+00,3.562080000000000107e-02,9.166720000000000423e-01,-1.350940000000000030e+00,-5.827650000000000191e-02,9.464960000000000040e-01,-1.358249999999999957e+00,5.526760000000000006e-02,4.557249999999999912e-01,-1.345069999999999988e+00
6.400000000000000000e+01,3.200000000000000067e-01,-1.246153385598729901e+00,-1.824881380886230198e-01,5.916036630432729426e-01,-3.346762026573775820e-03,5.754727463684437480e-03,-8.598413229542716252e-01,5.149418196923699620e-01,4.179705999709654729e-01,6.949130531334353211e-01,2.361063660657390303e-02,-6.818839999999999624e-02,4.079800000000000093e-01,-1.346989999999999910e+00,3.924930000000000085e-02,9.152109999999999967e-01,-1.368319999999999981e+00,-5.898450000000000221e-02,9.365400000000000391e-01,-1.375320000000000098e+00,5.553310000000000191e-02,4.428929999999999811e-01,-1.343970000000000109e+00
6.500000000000000000e+01,3.250000000000000111e-01,-1.244067256670998267e+00,-1.790088729985027105e-01,5.916936789553390863e-01,-3.234987597106160889e-03,5.129039552146221273e-03,-8.595429999797178366e-01,5.154469468592001169e-01,4.164752934360195780e-01,6.967987119774852189e-01,1.239522721544160377e-02,-6.849810000000000620e-02,3.993950000000000000e-01,-1.340330000000000021e+00,4.070950000000000263e-02,9.130869999999999820e-01,-1.375920000000000032e+00,-6.057749999999999940e-02,9.309199999999999697e-01,-1.385529999999999928e+00,5.429409999999999792e-02,4.350160000000000138e-01,-1.342780000000000085e+00
6.600000000000000000e+01,3.300000000000000155e-01,-1.241986454189698774e+00,-1.755134465514246178e-01,5.917954191985143053e-01,-3.019585767761151941e-03,4.671799266795403395e-03,-8.592532408961182089e-01,5.159354808840000972e-01,4.158356790431944061e-01,7.013777882566669675e-01,2.830036033741368390e-02,-6.871939999999999993e-02,3.909000000000000252e-01,-1.333800000000000097e+00,4.225820000000000271e-02,9.063170000000000393e-01,-1.379960000000000075e+00,-6.367490000000000649e-02,9.264949999999999575e-01,-1.393510000000000026e+00,5.225860000000000227e-02,4.271400000000000197e-01,-1.341150000000000064e+00
6.700000000000000000e+01,3.350000000000000200e-01,-1.239857175939208744e+00,-1.720018637488522628e-01,5.919694723069439668e-01,-2.908764560103871150e-03,4.339088377573766149e-03,-8.588747611154285977e-01,5.165688261517394908e-01,4.358695685285816634e-01,7.032649019272118052e-01,4.132252310642523657e-02,-6.725920000000000509e-02,3.800580000000000069e-01,-1.324899999999999967e+00,4.500169999999999865e-02,8.991040000000000143e-01,-1.379369999999999985e+00,-6.978139999999999343e-02,9.179990000000000094e-01,-1.398300000000000098e+00,5.314359999999999917e-02,4.186000000000000276e-01,-1.338100000000000067e+00
6.800000000000000000e+01,3.400000000000000244e-01,-1.237675442443311846e+00,-1.684572746671605670e-01,5.921006476436018184e-01,-3.027409900932830512e-03,4.455620032126685406e-03,-8.585359562585808124e-01,5.171300514209850041e-01,4.368223677221660384e-01,7.145706709956816116e-01,1.114772476838239712e-02,-6.761319999999999830e-02,3.676690000000000236e-01,-1.317749999999999977e+00,4.832039999999999946e-02,8.866260000000000252e-01,-1.373099999999999987e+00,-7.110890000000000266e-02,9.117159999999999709e-01,-1.395059999999999967e+00,5.265679999999999666e-02,4.089979999999999727e-01,-1.333630000000000093e+00
6.900000000000000000e+01,3.450000000000000289e-01,-1.235518210634934944e+00,-1.649037492443322372e-01,5.921316824469281537e-01,-3.194970867008871483e-03,4.217198462189268755e-03,-8.582519065071556597e-01,5.176023265086887593e-01,4.260720215917030984e-01,7.068413073603905250e-01,1.267012766068863162e-03,-6.712640000000000273e-02,3.582440000000000069e-01,-1.314170000000000060e+00,4.876289999999999791e-02,8.820240000000000302e-01,-1.368179999999999952e+00,-7.225929999999999853e-02,9.077330000000000121e-01,-1.390989999999999949e+00,5.150640000000000079e-02,4.018729999999999802e-01,-1.330060000000000020e+00
7.000000000000000000e+01,3.500000000000000333e-01,-1.233366892988447372e+00,-1.613592798838105469e-01,5.921939133879782213e-01,-3.481769780408430163e-03,4.183126780413767148e-03,-8.579312838454755674e-01,5.181320169231723449e-01,4.344595827005172106e-01,7.109523240557914514e-01,2.362449868184053614e-02,-6.367490000000000649e-02,3.441279999999999895e-01,-1.318480000000000096e+00,5.013460000000000139e-02,8.750769999999999937e-01,-1.361220000000000097e+00,-7.425059999999999993e-02,9.025119999999999809e-01,-1.384249999999999980e+00,4.778940000000000271e-02,3.927579999999999960e-01,-1.330570000000000030e+00
7.100000000000000000e+01,3.549999999999999822e-01,-1.231209795256198003e+00,-1.578281651596012691e-01,5.923416223889068633e-01,-4.002641352208307149e-03,4.170556323738123725e-03,-8.577358432610124872e-01,5.184518343487283243e-01,4.283896084686329986e-01,7.014984742425880437e-01,3.546085954602649915e-02,-6.455990000000000339e-02,3.380659999999999776e-01,-1.327479999999999993e+00,5.062139999999999695e-02,8.695019999999999971e-01,-1.358610000000000095e+00,-7.473730000000000651e-02,8.981310000000000127e-01,-1.381729999999999903e+00,4.880709999999999910e-02,3.866069999999999784e-01,-1.335800000000000098e+00
7.200000000000000000e+01,3.599999999999999867e-01,-1.229088722847854642e+00,-1.543789231675375129e-01,5.925330167698431572e-01,-4.639517563572920222e-03,4.029406149716094690e-03,-8.575795164851606200e-01,5.187061862943427304e-01,4.200502958108038865e-01,6.782056992387195393e-01,4.110166094269458725e-02,-6.509089999999999321e-02,3.326230000000000020e-01,-1.345630000000000104e+00,4.964790000000000175e-02,8.603859999999999841e-01,-1.359380000000000033e+00,-7.336560000000000303e-02,8.908300000000000107e-01,-1.383790000000000076e+00,4.854159999999999725e-02,3.833329999999999793e-01,-1.348680000000000101e+00
7.300000000000000000e+01,3.649999999999999911e-01,-1.227022869335399280e+00,-1.510425077008043793e-01,5.927583766282589206e-01,-5.255433354776435986e-03,4.258524896173183916e-03,-8.574000808351189828e-01,5.189950315773541600e-01,4.063058651868491911e-01,6.563612437468731020e-01,4.904608844680918150e-02,-6.513520000000000421e-02,3.344369999999999843e-01,-1.362610000000000099e+00,4.986909999999999954e-02,8.537930000000000241e-01,-1.362900000000000000e+00,-7.243629999999999514e-02,8.854760000000000408e-01,-1.389820000000000055e+00,4.938239999999999991e-02,3.837309999999999888e-01,-1.363070000000000004e+00
7.400000000000000000e+01,3.699999999999999956e-01,-1.225024060714787533e+00,-1.477864200352218271e-01,5.930119730584564319e-01,-5.626593056818524757e-03,4.182410191971259322e-03,-8.573167436001619679e-01,5.191294116792636304e-01,3.932229862730502457e-01,6.460776217221962936e-01,5.239457050219476636e-02,-6.548919999999999741e-02,3.422689999999999899e-01,-1.382560000000000011e+00,5.017889999999999850e-02,8.476869999999999683e-01,-1.367320000000000091e+00,-7.279030000000000222e-02,8.798120000000000385e-01,-1.397960000000000091e+00,4.911689999999999806e-02,3.898380000000000178e-01,-1.380279999999999951e+00
7.500000000000000000e+01,3.750000000000000000e-01,-1.223044408013500783e+00,-1.446073545255079362e-01,5.933206431819899596e-01,-5.785200779147180693e-03,4.038344966783529236e-03,-8.572435999668185369e-01,5.192495831196097811e-01,3.986404290235204817e-01,6.255534732298996259e-01,7.107476330907258610e-02,-6.562189999999999690e-02,3.486859999999999959e-01,-1.400970000000000049e+00,5.004610000000000308e-02,8.430400000000000116e-01,-1.370449999999999946e+00,-7.252480000000000038e-02,8.738380000000000036e-01,-1.405510000000000037e+00,4.911689999999999806e-02,3.969619999999999815e-01,-1.396490000000000009e+00
7.600000000000000000e+01,3.800000000000000044e-01,-1.221093650530091335e+00,-1.415121261870473657e-01,5.936382286327682722e-01,-5.961618961402637314e-03,4.046608970116587906e-03,-8.572141782132571830e-01,5.192960935318668980e-01,3.816645531500765798e-01,6.125385074123951279e-01,5.596065753294579559e-02,-6.548919999999999741e-02,3.620929999999999982e-01,-1.439750000000000085e+00,5.053289999999999865e-02,8.345000000000000195e-01,-1.373979999999999979e+00,-7.305580000000000407e-02,8.672009999999999996e-01,-1.411289999999999933e+00,4.955940000000000345e-02,4.110329999999999817e-01,-1.432150000000000034e+00
7.700000000000000000e+01,3.850000000000000089e-01,-1.219183694837837617e+00,-1.384518728595303949e-01,5.939118323292573720e-01,-6.101285145338478794e-03,3.889929584993978909e-03,-8.571936830444424338e-01,5.193294990159794677e-01,3.823183201062609893e-01,6.115660452614809506e-01,5.348088379888591565e-02,-6.548919999999999741e-02,3.716949999999999976e-01,-1.463479999999999892e+00,5.101959999999999829e-02,8.296329999999999538e-01,-1.374290000000000012e+00,-7.367529999999999912e-02,8.638379999999999947e-01,-1.412300000000000111e+00,4.964790000000000175e-02,4.216090000000000115e-01,-1.455969999999999986e+00
7.800000000000000000e+01,3.900000000000000133e-01,-1.217273854911208986e+00,-1.354254899986015170e-01,5.941378783994558654e-01,-6.206641876439155346e-03,3.798873164067690343e-03,-8.572227067644949683e-01,5.192810156348283135e-01,3.816178728371516504e-01,5.989885605037466032e-01,3.693811296614851053e-02,-6.438290000000000679e-02,3.897930000000000006e-01,-1.499540000000000095e+00,5.097539999999999710e-02,8.219330000000000247e-01,-1.373099999999999987e+00,-7.402930000000000621e-02,8.576430000000000442e-01,-1.410420000000000007e+00,4.978060000000000124e-02,4.393529999999999935e-01,-1.494129999999999958e+00
7.900000000000000000e+01,3.950000000000000178e-01,-1.215374048006421681e+00,-1.324557977906164197e-01,5.942818044438767933e-01,-6.298181367644698457e-03,3.710500327914682643e-03,-8.572812267407095010e-01,5.191839360080454657e-01,3.783048551580668328e-01,5.888898058595931628e-01,2.063276033322217554e-02,-6.385200000000000597e-02,4.051919999999999966e-01,-1.523050000000000015e+00,5.070990000000000220e-02,8.167560000000000375e-01,-1.372360000000000024e+00,-7.398509999999999809e-02,8.527749999999999497e-01,-1.408789999999999987e+00,4.969210000000000294e-02,4.534239999999999937e-01,-1.520869999999999944e+00
8.000000000000000000e+01,4.000000000000000222e-01,-1.213496545503959467e+00,-1.295322747370347416e-01,5.943809678717051348e-01,-6.427347896899381074e-03,3.757852339138422100e-03,-8.573217374567415616e-01,5.191151146528568683e-01,3.726980519772064016e-01,5.805199971424483962e-01,1.903294021861712954e-02,-6.429440000000000155e-02,4.300160000000000093e-01,-1.558049999999999935e+00,5.079840000000000050e-02,8.089239999999999764e-01,-1.372530000000000028e+00,-7.394080000000000097e-02,8.451199999999999823e-01,-1.408209999999999962e+00,5.022309999999999969e-02,4.778939999999999855e-01,-1.560279999999999889e+00
8.100000000000000000e+01,4.050000000000000266e-01,-1.211656390278407214e+00,-1.266401893388438282e-01,5.945063164794638366e-01,-6.484767205817639629e-03,3.677230449427874338e-03,-8.573790998120747187e-01,5.190202317906594809e-01,3.633640209632856277e-01,5.763165414118357477e-01,3.110667034609963799e-02,-6.429440000000000155e-02,4.473179999999999934e-01,-1.581979999999999942e+00,5.026739999999999681e-02,8.037469999999999892e-01,-1.373240000000000016e+00,-7.345409999999999440e-02,8.402530000000000276e-01,-1.409019999999999939e+00,5.057709999999999984e-02,4.953279999999999905e-01,-1.586470000000000047e+00
8.200000000000000000e+01,4.100000000000000311e-01,-1.209856340454986467e+00,-1.237516898447641456e-01,5.946889984567846898e-01,-6.403385555082045585e-03,3.469531169059236753e-03,-8.574867541213069266e-01,5.188447952379309225e-01,3.566525352881572131e-01,5.790864626277212324e-01,4.196560522091880019e-02,-6.442720000000000391e-02,4.752830000000000110e-01,-1.618430000000000035e+00,4.942660000000000109e-02,7.961799999999999988e-01,-1.374120000000000008e+00,-7.327709999999999779e-02,8.323760000000000048e-01,-1.410910000000000108e+00,5.075410000000000338e-02,5.230730000000000102e-01,-1.625119999999999898e+00
8.300000000000000000e+01,4.150000000000000355e-01,-1.208089813740450325e+00,-1.208794593062542527e-01,5.949369553034715707e-01,-6.319618503276614764e-03,3.388228079560759963e-03,-8.576069611961567585e-01,5.186476438512306331e-01,3.499549800696769575e-01,5.698068676673045951e-01,5.721697254344672995e-02,-6.442720000000000391e-02,4.938239999999999852e-01,-1.642050000000000010e+00,4.911689999999999806e-02,7.906050000000000022e-01,-1.374549999999999939e+00,-7.332130000000000591e-02,8.269779999999999909e-01,-1.412330000000000085e+00,5.110809999999999659e-02,5.417459999999999498e-01,-1.650730000000000031e+00
8.400000000000000000e+01,4.199999999999999845e-01,-1.206347801848197898e+00,-1.180515514753232020e-01,5.952651150557595194e-01,-6.219091881391560807e-03,3.355009641391103366e-03,-8.577575537412740481e-01,5.183999824829739200e-01,3.468466757838725156e-01,5.613560930761384293e-01,7.404676706393957530e-02,-6.429440000000000155e-02,5.143999999999999684e-01,-1.664609999999999923e+00,4.911689999999999806e-02,7.849850000000000438e-01,-1.374859999999999971e+00,-7.371959999999999624e-02,8.217560000000000420e-01,-1.413559999999999928e+00,5.150640000000000079e-02,5.604630000000000445e-01,-1.675249999999999906e+00
8.500000000000000000e+01,4.249999999999999889e-01,-1.204612636560548955e+00,-1.152649726503373329e-01,5.956556092975969774e-01,-6.085197381851074720e-03,3.425518173744168150e-03,-8.578895300679509894e-01,5.181826766980354160e-01,3.472172490964979819e-01,5.532729687457657031e-01,8.215060177141535191e-02,-6.433869999999999867e-02,5.253740000000000077e-01,-1.675070000000000059e+00,4.911689999999999806e-02,7.821529999999999871e-01,-1.374949999999999894e+00,-7.394080000000000097e-02,8.193230000000000235e-01,-1.413969999999999949e+00,5.168339999999999740e-02,5.705970000000000208e-01,-1.687270000000000048e+00
8.600000000000000000e+01,4.299999999999999933e-01,-1.202876571113326465e+00,-1.125130880903523478e-01,5.960624658576996193e-01,-5.964780432456565605e-03,3.587352846808598318e-03,-8.580156144598628520e-01,5.179741824348915724e-01,3.472081373744728694e-01,5.474777018034120424e-01,8.059164381174412084e-02,-6.442720000000000391e-02,5.824110000000000120e-01,-1.723279999999999923e+00,4.969210000000000294e-02,7.683470000000000022e-01,-1.375010000000000066e+00,-7.517980000000000496e-02,8.059589999999999810e-01,-1.414050000000000029e+00,5.363029999999999881e-02,6.229879999999999862e-01,-1.739619999999999944e+00
8.700000000000000000e+01,4.349999999999999978e-01,-1.201142635861238261e+00,-1.097805122410211581e-01,5.964728094381513968e-01,-5.873311486254562640e-03,3.940577922699153857e-03,-8.581444880292082855e-01,5.177591232947941213e-01,3.463675995927329998e-01,5.455466695945002664e-01,8.354559795071687944e-02,-6.455990000000000339e-02,6.058189999999999964e-01,-1.740920000000000023e+00,4.947089999999999821e-02,7.622849999999999904e-01,-1.374980000000000091e+00,-7.504710000000000547e-02,8.000739999999999519e-01,-1.414029999999999898e+00,5.442679999999999740e-02,6.450679999999999747e-01,-1.756920000000000037e+00
8.800000000000000000e+01,4.400000000000000022e-01,-1.199412440125113610e+00,-1.070616774862983012e-01,5.968957592810152368e-01,-5.824490680406788946e-03,4.286061238019197965e-03,-8.582495422479805569e-01,5.175827704344444502e-01,3.457127730441391655e-01,5.419818229310952029e-01,8.563399403773448715e-02,-6.460420000000000051e-02,6.416610000000000369e-01,-1.766049999999999898e+00,4.951509999999999939e-02,7.532579999999999831e-01,-1.375059999999999949e+00,-7.500279999999999447e-02,7.916670000000000096e-01,-1.414309999999999956e+00,5.535609999999999836e-02,6.791409999999999947e-01,-1.779150000000000009e+00
8.900000000000000000e+01,4.450000000000000067e-01,-1.197689764594177086e+00,-1.043455038788057426e-01,5.973382163278626589e-01,-5.767550249325188727e-03,4.527220413996200371e-03,-8.583526828275588327e-01,5.174102893780350154e-01,3.433589833801553026e-01,5.444834955490682749e-01,9.134908241359973591e-02,-6.478119999999999712e-02,6.663080000000000114e-01,-1.781460000000000043e+00,4.986909999999999954e-02,7.477709999999999635e-01,-1.374980000000000091e+00,-7.504710000000000547e-02,7.862679999999999669e-01,-1.414169999999999927e+00,5.610829999999999984e-02,7.026369999999999560e-01,-1.791949999999999932e+00
9.000000000000000000e+01,4.500000000000000111e-01,-1.195960226430947682e+00,-1.016349193326029354e-01,5.977840547009068972e-01,-5.735150462635990772e-03,4.834933643069765433e-03,-8.584692202757850943e-01,5.172144867818464498e-01,3.484578701791132826e-01,5.397457798027673892e-01,8.698561179754102368e-02,-6.464839999999999476e-02,6.910880000000000356e-01,-1.795520000000000005e+00,5.022309999999999969e-02,7.422840000000000549e-01,-1.374889999999999946e+00,-7.504710000000000547e-02,7.807370000000000143e-01,-1.414080000000000004e+00,5.637380000000000169e-02,7.256909999999999750e-01,-1.803039999999999976e+00
9.100000000000000000e+01,4.550000000000000155e-01,-1.194210710422467070e+00,-9.894334469738545745e-02,5.982196354517120840e-01,-5.641556378562388729e-03,5.141905663683937235e-03,-8.585804008496423778e-01,5.170279730891993442e-01,3.513496061497469736e-01,5.368787686159461892e-01,8.724632362090020687e-02,-6.469270000000000576e-02,7.293640000000000123e-01,-1.813420000000000032e+00,5.079840000000000050e-02,7.335669999999999691e-01,-1.374829999999999997e+00,-7.517980000000000496e-02,7.723740000000000050e-01,-1.414029999999999898e+00,5.677200000000000302e-02,7.604710000000000081e-01,-1.818060000000000009e+00
9.200000000000000000e+01,4.600000000000000200e-01,-1.192445205694040666e+00,-9.626089768957007964e-02,5.986606448311216910e-01,-5.542067758295264601e-03,5.477353864794913541e-03,-8.586920815536821516e-01,5.168401002134916933e-01,3.548537169470584174e-01,5.360940453939999628e-01,8.915724342486978926e-02,-6.464839999999999476e-02,7.685689999999999467e-01,-1.827380000000000004e+00,5.155060000000000198e-02,7.248059999999999503e-01,-1.374779999999999891e+00,-7.553379999999999816e-02,7.639669999999999517e-01,-1.413799999999999946e+00,5.734729999999999689e-02,7.961799999999999988e-01,-1.830470000000000041e+00
9.300000000000000000e+01,4.650000000000000244e-01,-1.190665818470806325e+00,-9.358458638475951330e-02,5.990968933669740260e-01,-5.367936314569925899e-03,5.757164700042938059e-03,-8.587731888589705820e-01,5.167041188566425802e-01,3.569010016262186835e-01,5.344254116214932626e-01,8.534199729891349395e-02,-6.469270000000000576e-02,7.933930000000000149e-01,-1.834989999999999899e+00,5.212579999999999991e-02,7.190539999999999710e-01,-1.374659999999999993e+00,-7.557809999999999528e-02,7.583910000000000373e-01,-1.413540000000000019e+00,5.778980000000000228e-02,8.202080000000000481e-01,-1.837050000000000072e+00
9.400000000000000000e+01,4.700000000000000289e-01,-1.188880824108543788e+00,-9.090801593416401871e-02,5.995065274447158865e-01,-5.243063425718039010e-03,6.004051268900233509e-03,-8.588476075263892229e-01,5.165788852949343424e-01,3.570971083436561000e-01,5.361988895756846230e-01,7.851179856498609333e-02,-6.447139999999999815e-02,8.313589999999999591e-01,-1.844160000000000021e+00,5.283380000000000021e-02,7.113979999999999748e-01,-1.374519999999999964e+00,-7.584359999999999713e-02,7.508690000000000087e-01,-1.412469999999999892e+00,5.840929999999999733e-02,8.553420000000000467e-01,-1.843869999999999898e+00
9.500000000000000000e+01,4.750000000000000333e-01,-1.187091204119340659e+00,-8.822005965298607144e-02,5.999024679237610069e-01,-5.173348693291415085e-03,6.148289603278235885e-03,-8.588883438217245203e-01,5.165101585424166641e-01,3.587511990900886794e-01,5.389809091313197964e-01,7.986453638096024932e-02,-6.438290000000000679e-02,8.555629999999999624e-01,-1.848740000000000050e+00,5.323209999999999747e-02,7.061330000000000107e-01,-1.374440000000000106e+00,-7.610899999999999610e-02,7.457359999999999545e-01,-1.411550000000000082e+00,5.858630000000000088e-02,8.792809999999999793e-01,-1.846319999999999961e+00
9.600000000000000000e+01,4.799999999999999822e-01,-1.185290787632627074e+00,-8.552359956986708978e-02,6.002987151940722965e-01,-5.067881037387263199e-03,6.245849415316896691e-03,-8.589392128817296967e-01,5.164254356178363814e-01,3.614147673787870829e-01,5.396008504206041279e-01,7.863444000240626952e-02,-6.438290000000000679e-02,8.787939999999999641e-01,-1.851580000000000004e+00,5.340910000000000102e-02,7.006459999999999910e-01,-1.374290000000000012e+00,-7.633030000000000370e-02,7.404699999999999616e-01,-1.410770000000000080e+00,5.885180000000000272e-02,9.031749999999999501e-01,-1.847690000000000055e+00
9.700000000000000000e+01,4.849999999999999867e-01,-1.183484375697510860e+00,-8.282113759796723429e-02,6.006655290112332679e-01,-4.907468559721466991e-03,6.374178525034471070e-03,-8.590172329035938859e-01,5.162956286927136151e-01,3.611491719242322929e-01,5.413814953834065191e-01,6.809119786846810907e-02,-6.416170000000000206e-02,9.123350000000000071e-01,-1.852659999999999973e+00,5.349759999999999932e-02,6.923270000000000257e-01,-1.374039999999999928e+00,-7.677280000000000215e-02,7.322400000000000020e-01,-1.410080000000000000e+00,5.920580000000000287e-02,9.370699999999999585e-01,-1.847490000000000077e+00
9.800000000000000000e+01,4.899999999999999911e-01,-1.181680132925274185e+00,-8.010773023911726964e-02,6.009946525830920372e-01,-4.717834394488331501e-03,6.338070781503014547e-03,-8.590496020747745431e-01,5.162439811800733080e-01,3.605452864755451792e-01,5.439804816817097599e-01,6.355825554800745292e-02,-6.433869999999999867e-02,9.449469999999999814e-01,-1.850039999999999907e+00,5.349759999999999932e-02,6.842289999999999761e-01,-1.373809999999999976e+00,-7.739229999999999721e-02,7.240090000000000137e-01,-1.409880000000000022e+00,5.942700000000000066e-02,9.686200000000000365e-01,-1.845069999999999988e+00
9.900000000000000000e+01,4.949999999999999956e-01,-1.179867741788639846e+00,-7.738694075851204612e-02,6.013025339007851411e-01,-4.597142874644340703e-03,6.309534840544059157e-03,-8.590530079500416916e-01,5.162397520644425031e-01,3.644093769936129767e-01,5.443347421774618056e-01,5.959443204334741173e-02,-6.438290000000000679e-02,9.654789999999999761e-01,-1.846710000000000074e+00,5.380730000000000235e-02,6.787419999999999565e-01,-1.373699999999999921e+00,-7.774630000000000429e-02,7.187440000000000495e-01,-1.409820000000000073e+00,5.960399999999999726e-02,9.882229999999999626e-01,-1.842430000000000012e+00
1.000000000000000000e+02,5.000000000000000000e-01,-1.178035363364227095e+00,-7.466241986248731144e-02,6.015862357665325844e-01,-4.430516154620294661e-03,6.336993036749723023e-03,-8.590663433018485007e-01,5.162186812620518372e-01,3.685401280272245783e-01,5.454720062365615574e-01,5.388653654148179567e-02,-6.420589999999999631e-02,9.937099999999999822e-01,-1.839790000000000036e+00,5.420559999999999962e-02,6.705560000000000409e-01,-1.373580000000000023e+00,-7.849849999999999883e-02,7.109999999999999654e-01,-1.409249999999999892e+00,5.960399999999999726e-02,1.016720000000000068e+00,-1.836589999999999945e+00
1.010000000000000000e+02,5.050000000000000044e-01,-1.176186812475838117e+00,-7.192854906437456952e-02,6.018576924125621508e-01,-4.340054174417812098e-03,6.345869649790056473e-03,-8.590502900643552930e-01,5.162460547457806692e-01,3.708789707163898108e-01,5.480754371904978939e-01,5.469622993607023420e-02,-6.398470000000000546e-02,1.011449999999999960e+00,-1.833660000000000068e+00,5.438260000000000316e-02,6.650249999999999773e-01,-1.373499999999999943e+00,-7.907379999999999964e-02,7.055569999999999897e-01,-1.408730000000000038e+00,5.982520000000000199e-02,1.033309999999999951e+00,-1.831180000000000030e+00
1.020000000000000000e+02,5.100000000000000089e-01,-1.174328285502544089e+00,-6.917974898874709733e-02,6.021060334447669860e-01,-4.283419258733908545e-03,6.301242280878164778e-03,-8.590662276631256811e-01,5.162205528511081276e-01,3.725309092482050333e-01,5.514447043554443484e-01,4.464021585728190911e-02,-6.389620000000000022e-02,1.034419999999999895e+00,-1.822959999999999914e+00,5.451530000000000264e-02,6.563520000000000465e-01,-1.373240000000000016e+00,-7.964899999999999758e-02,6.973270000000000302e-01,-1.408009999999999984e+00,6.009069999999999689e-02,1.056319999999999926e+00,-1.820619999999999905e+00
1.030000000000000000e+02,5.150000000000000133e-01,-1.172463877553721279e+00,-6.642025073381677136e-02,6.023212666996888842e-01,-4.247723588028005752e-03,6.321880513972950345e-03,-8.590800126484663402e-01,5.161976545579060049e-01,3.732319612338407255e-01,5.523540481575813788e-01,4.145310599574660027e-02,-6.358650000000000413e-02,1.047250000000000014e+00,-1.814519999999999911e+00,5.464809999999999807e-02,6.507319999999999771e-01,-1.373010000000000064e+00,-7.995879999999999654e-02,6.917520000000000335e-01,-1.407550000000000079e+00,6.009069999999999689e-02,1.069770000000000110e+00,-1.811800000000000077e+00
1.040000000000000000e+02,5.200000000000000178e-01,-1.170595782579590072e+00,-6.365640322814974938e-02,6.025243943913783928e-01,-4.148888161028051018e-03,6.321269864444400630e-03,-8.590925948237585486e-01,5.161775254942772007e-01,3.740046773097933652e-01,5.531841595098054842e-01,3.979801065659375331e-02,-6.292269999999999808e-02,1.064640000000000031e+00,-1.800100000000000033e+00,5.469229999999999925e-02,6.417939999999999756e-01,-1.372470000000000079e+00,-8.035699999999999787e-02,6.834770000000000012e-01,-1.407000000000000028e+00,6.004650000000000265e-02,1.086370000000000058e+00,-1.796650000000000080e+00
1.050000000000000000e+02,5.250000000000000222e-01,-1.168721679977373196e+00,-6.088857512501752445e-02,6.027047167886792067e-01,-4.141123108108307055e-03,6.314990692789186622e-03,-8.590792554133587222e-01,5.161998653065188458e-01,3.756362057505768237e-01,5.539471193002130089e-01,3.233095778936746767e-02,-6.261300000000000199e-02,1.073620000000000019e+00,-1.788790000000000102e+00,5.473660000000000331e-02,6.359970000000000345e-01,-1.372069999999999901e+00,-8.044550000000000312e-02,6.779020000000000046e-01,-1.406679999999999930e+00,6.004650000000000265e-02,1.095089999999999897e+00,-1.784929999999999906e+00
1.060000000000000000e+02,5.300000000000000266e-01,-1.166835351102929019e+00,-5.811538879178607120e-02,6.028563695833594194e-01,-4.121304797145495559e-03,6.418724372288229542e-03,-8.590644505378421947e-01,5.162233825374461516e-01,3.788958659421686748e-01,5.553259554716908353e-01,2.833017102807620230e-02,-6.172799999999999815e-02,1.084289999999999976e+00,-1.770529999999999937e+00,5.513479999999999770e-02,6.277669999999999639e-01,-1.371450000000000058e+00,-8.066669999999999396e-02,6.699370000000000047e-01,-1.405939999999999968e+00,6.022349999999999925e-02,1.104910000000000059e+00,-1.765770000000000062e+00
1.070000000000000000e+02,5.350000000000000311e-01,-1.164936513044967592e+00,-5.534139437396386196e-02,6.029898645686319059e-01,-4.153861547503416747e-03,6.549697684546586240e-03,-8.590338076011140300e-01,5.162724671381411223e-01,3.806408205573581505e-01,5.542703849815543427e-01,2.506773878994553867e-02,-6.093149999999999955e-02,1.089550000000000018e+00,-1.756920000000000037e+00,5.540029999999999955e-02,6.219259999999999788e-01,-1.371019999999999905e+00,-8.075519999999999921e-02,6.642280000000000406e-01,-1.405359999999999943e+00,6.022349999999999925e-02,1.108980000000000077e+00,-1.751600000000000046e+00
1.080000000000000000e+02,5.400000000000000355e-01,-1.163030291998105925e+00,-5.257468052543363968e-02,6.030988493240625470e-01,-4.196585339304683381e-03,6.659389172522700052e-03,-8.590153172637691181e-01,5.163014835787812506e-01,3.818489274080781315e-01,5.524141489556542162e-01,1.852608582714489541e-02,-6.009069999999999689e-02,1.092519999999999936e+00,-1.742350000000000065e+00,5.557730000000000309e-02,6.158639999999999670e-01,-1.370479999999999920e+00,-8.084370000000000445e-02,6.584320000000000173e-01,-1.404840000000000089e+00,6.026770000000000044e-02,1.111459999999999892e+00,-1.736410000000000009e+00
1.090000000000000000e+02,5.450000000000000400e-01,-1.161120595295230151e+00,-4.980960822203676225e-02,6.031777710581606167e-01,-4.329711173140437727e-03,6.830212015972035762e-03,-8.590030398158858826e-01,5.163185793907937304e-01,3.820326732272186776e-01,5.536136453991536976e-01,1.304263121649869989e-02,-5.889599999999999697e-02,1.094600000000000017e+00,-1.718960000000000043e+00,5.593130000000000324e-02,6.067930000000000268e-01,-1.369510000000000005e+00,-8.088800000000000157e-02,6.498030000000000195e-01,-1.404239999999999933e+00,6.026770000000000044e-02,1.111900000000000110e+00,-1.712120000000000086e+00
1.100000000000000000e+02,5.500000000000000444e-01,-1.159209478182622544e+00,-4.703991151164894913e-02,6.032344359791658173e-01,-4.391080840130685836e-03,6.932519271745892983e-03,-8.590050258761584567e-01,5.163133933350830818e-01,3.824157659507829710e-01,5.542641906588688938e-01,9.623340372494076575e-03,-5.770129999999999704e-02,1.093450000000000033e+00,-1.694280000000000008e+00,5.628530000000000338e-02,5.981640000000000290e-01,-1.368319999999999981e+00,-8.097650000000000681e-02,6.415279999999999871e-01,-1.403899999999999926e+00,6.031199999999999756e-02,1.109329999999999927e+00,-1.686450000000000005e+00
1.110000000000000000e+02,5.550000000000000488e-01,-1.157301770665783547e+00,-4.426408198904152602e-02,6.032617211858032347e-01,-4.509226376057336172e-03,6.975416180911626733e-03,-8.589941564890866132e-01,5.163298805960009341e-01,3.806688930374200752e-01,5.560679391358543944e-01,1.290804215669513495e-03,-5.712600000000000317e-02,1.091010000000000035e+00,-1.677280000000000104e+00,5.659499999999999947e-02,5.926329999999999654e-01,-1.367469999999999963e+00,-8.075519999999999921e-02,6.363510000000000000e-01,-1.403669999999999973e+00,6.035619999999999874e-02,1.106190000000000007e+00,-1.668409999999999949e+00
1.120000000000000000e+02,5.600000000000000533e-01,-1.155403660930437226e+00,-4.147726197635324269e-02,6.032455102376255152e-01,-4.630452311361434210e-03,6.994308918336246753e-03,-8.589713293940088867e-01,5.163665266700792067e-01,3.785764665339341195e-01,5.586606557236073467e-01,-7.775139233108025426e-03,-5.632949999999999763e-02,1.085839999999999916e+00,-1.650419999999999998e+00,5.703749999999999792e-02,5.843580000000000441e-01,-1.366300000000000070e+00,-8.079949999999999632e-02,6.290059999999999540e-01,-1.403010000000000090e+00,6.048900000000000110e-02,1.100130000000000052e+00,-1.640439999999999898e+00
1.130000000000000000e+02,5.650000000000000577e-01,-1.153510522140354100e+00,-3.869134876385000449e-02,6.031843150672715481e-01,-4.814563197916490490e-03,6.946565109080235327e-03,-8.589222757812485787e-01,5.164470790054339622e-01,3.786809115671457837e-01,5.557064501822276403e-01,-1.670279709219436165e-02,-5.584279999999999800e-02,1.081239999999999979e+00,-1.632339999999999902e+00,5.734729999999999689e-02,5.786499999999999977e-01,-1.365590000000000082e+00,-8.075519999999999921e-02,6.239170000000000549e-01,-1.402519999999999989e+00,6.048900000000000110e-02,1.095259999999999900e+00,-1.621529999999999916e+00
1.140000000000000000e+02,5.700000000000000622e-01,-1.151620207510495986e+00,-3.590944834202436375e-02,6.030786961761918086e-01,-5.036335164234438840e-03,6.810245077465857874e-03,-8.588557892636041746e-01,5.165573396735113620e-01,3.774464726632002498e-01,5.570567625634927911e-01,-2.554480833254914318e-02,-5.562160000000000021e-02,1.076009999999999911e+00,-1.614270000000000094e+00,5.752430000000000043e-02,5.727649999999999686e-01,-1.364880000000000093e+00,-8.075519999999999921e-02,6.186960000000000237e-01,-1.402199999999999891e+00,6.053320000000000228e-02,1.089420000000000055e+00,-1.602989999999999915e+00
1.150000000000000000e+02,5.750000000000000666e-01,-1.149737836413365466e+00,-3.312410555935075412e-02,6.029336448709603502e-01,-5.326840264966724997e-03,6.623518997215277482e-03,-8.587970028294072966e-01,5.166545826102750816e-01,3.755040962759426670e-01,5.570846281416660384e-01,-3.247561290402294770e-02,-5.540029999999999955e-02,1.066459999999999964e+00,-1.586980000000000057e+00,5.761279999999999873e-02,5.644900000000000473e-01,-1.363690000000000069e+00,-8.079949999999999632e-02,6.111729999999999663e-01,-1.402120000000000033e+00,6.035619999999999874e-02,1.079069999999999974e+00,-1.574950000000000072e+00
1.160000000000000000e+02,5.799999999999999600e-01,-1.147869236408474158e+00,-3.033996307262598266e-02,6.027565149302934744e-01,-5.618376936830914506e-03,6.386002052578752981e-03,-8.587269008538277459e-01,5.167709924138991218e-01,3.719377474014342599e-01,5.565772936137670657e-01,-3.837614735892184992e-02,-5.509060000000000346e-02,1.055660000000000043e+00,-1.559260000000000090e+00,5.765699999999999992e-02,5.559939999999999882e-01,-1.362330000000000041e+00,-8.071100000000000496e-02,6.040929999999999911e-01,-1.402090000000000058e+00,6.009069999999999689e-02,1.066940000000000000e+00,-1.546899999999999942e+00
1.170000000000000000e+02,5.849999999999999645e-01,-1.146015472145449632e+00,-2.755774700676295874e-02,6.025463250175026042e-01,-5.958349339569958894e-03,6.082140568694682260e-03,-8.586626349116652790e-01,5.168776267917698508e-01,3.695698286885069628e-01,5.563150976439724671e-01,-4.569966827721221037e-02,-5.504629999999999940e-02,1.047830000000000039e+00,-1.541360000000000063e+00,5.774549999999999822e-02,5.502860000000000529e-01,-1.361450000000000049e+00,-8.044550000000000312e-02,5.992699999999999694e-01,-1.402120000000000033e+00,5.955980000000000302e-02,1.058270000000000044e+00,-1.528469999999999995e+00
1.180000000000000000e+02,5.899999999999999689e-01,-1.144175376057381177e+00,-2.476856857629529743e-02,6.023083168419948175e-01,-6.213784614022938371e-03,5.798116262987653216e-03,-8.586013065947589729e-01,5.169797511261244871e-01,3.664695605148317048e-01,5.593618096961477937e-01,-4.950389937461879830e-02,-5.504629999999999940e-02,1.034680000000000044e+00,-1.514539999999999997e+00,5.787830000000000058e-02,5.424099999999999477e-01,-1.360309999999999908e+00,-7.995879999999999654e-02,5.925890000000000324e-01,-1.401920000000000055e+00,5.902879999999999933e-02,1.044110000000000094e+00,-1.500280000000000058e+00
1.190000000000000000e+02,5.949999999999999734e-01,-1.142354027182880483e+00,-2.197218949050163544e-02,6.020417408231053535e-01,-6.468540620873262578e-03,5.467392683442239172e-03,-8.585249146670771436e-01,5.171070803300363838e-01,3.620706416018646401e-01,5.591953325809481123e-01,-5.712640899202247463e-02,-5.482510000000000161e-02,1.025609999999999911e+00,-1.496729999999999894e+00,5.792250000000000176e-02,5.370110000000000161e-01,-1.359750000000000014e+00,-7.991449999999999942e-02,5.878539999999999877e-01,-1.401829999999999909e+00,5.894030000000000102e-02,1.033760000000000012e+00,-1.481959999999999944e+00
1.200000000000000000e+02,5.999999999999999778e-01,-1.140554046772492391e+00,-1.917745505500469821e-02,6.017376236869168560e-01,-6.747772006209773986e-03,5.078078013714721825e-03,-8.584393972977178988e-01,5.172494348917699991e-01,3.579220685698663029e-01,5.587048411387115499e-01,-6.452030811438319580e-02,-5.478079999999999755e-02,1.011139999999999928e+00,-1.470269999999999966e+00,5.792250000000000176e-02,5.289580000000000393e-01,-1.359070000000000000e+00,-7.991449999999999942e-02,5.803319999999999590e-01,-1.401799999999999935e+00,5.871900000000000036e-02,1.017560000000000020e+00,-1.455500000000000016e+00
1.210000000000000000e+02,6.049999999999999822e-01,-1.138773924696324658e+00,-1.638572097152116852e-02,6.013982766903972488e-01,-6.981457893274607002e-03,4.768392166227125584e-03,-8.583219982929858327e-01,5.174440694029209808e-01,3.541273725266027017e-01,5.579939416139538810e-01,-7.121834276831141841e-02,-5.478079999999999755e-02,1.000520000000000076e+00,-1.453459999999999974e+00,5.796679999999999888e-02,5.233820000000000139e-01,-1.358610000000000095e+00,-7.991449999999999942e-02,5.752429999999999488e-01,-1.401799999999999935e+00,5.858630000000000088e-02,1.005919999999999925e+00,-1.438180000000000014e+00
1.220000000000000000e+02,6.099999999999999867e-01,-1.137011480226339577e+00,-1.359315761725337496e-02,6.010315615652667143e-01,-7.216149848802479519e-03,4.455294066368809154e-03,-8.582158994122998097e-01,5.176195934894317618e-01,3.508509188106793131e-01,5.590369811215873952e-01,-7.546779232017258865e-02,-5.455959999999999976e-02,9.845500000000000362e-01,-1.428930000000000033e+00,5.792250000000000176e-02,5.154180000000000428e-01,-1.357850000000000001e+00,-7.991449999999999942e-02,5.677200000000000024e-01,-1.401829999999999909e+00,5.845349999999999852e-02,9.878249999999999531e-01,-1.413019999999999943e+00
1.230000000000000000e+02,6.149999999999999911e-01,-1.135271291912028024e+00,-1.079401150727246281e-02,6.006403122509972325e-01,-7.437007058534357735e-03,4.203310658385760006e-03,-8.580990821962405368e-01,5.178122094655316365e-01,3.452251321285198515e-01,5.606258077295743769e-01,-8.103198902848912644e-02,-5.438260000000000316e-02,9.732669999999999932e-01,-1.413249999999999895e+00,5.805529999999999718e-02,5.104619999999999713e-01,-1.357369999999999965e+00,-7.978169999999999706e-02,5.629410000000000247e-01,-1.401799999999999935e+00,5.854199999999999682e-02,9.754789999999999850e-01,-1.396840000000000082e+00
1.240000000000000000e+02,6.199999999999999956e-01,-1.133558111873625984e+00,-7.992133675477523097e-03,6.002213553979144356e-01,-7.591714892711182161e-03,3.934538091755565396e-03,-8.579567333573386856e-01,5.180478983587157860e-01,3.400468259585492370e-01,5.601293294502014408e-01,-8.655070566392750187e-02,-5.407279999999999726e-02,9.558320000000000149e-01,-1.391999999999999904e+00,5.814380000000000243e-02,5.026739999999999542e-01,-1.356999999999999984e+00,-7.969329999999999470e-02,5.556400000000000228e-01,-1.401799999999999935e+00,5.854199999999999682e-02,9.568499999999999783e-01,-1.373720000000000052e+00
1.250000000000000000e+02,6.250000000000000000e-01,-1.131867304357540904e+00,-5.189877441966781607e-03,5.997722126625104622e-01,-7.757313288333136068e-03,3.668887555984215714e-03,-8.578285077252915114e-01,5.182596942851462885e-01,3.362761801327109890e-01,5.607772713236520712e-01,-9.310644346225128987e-02,-5.385159999999999947e-02,9.449469999999999814e-01,-1.376630000000000020e+00,5.814380000000000243e-02,4.971430000000000016e-01,-1.356859999999999955e+00,-7.960480000000000333e-02,5.488699999999999690e-01,-1.401799999999999935e+00,5.849780000000000257e-02,9.407870000000000399e-01,-1.357140000000000013e+00
1.260000000000000000e+02,6.300000000000000044e-01,-1.130207115683013130e+00,-2.389444707943672985e-03,5.993169513650420388e-01,-7.911909165865994506e-03,3.372434062683040724e-03,-8.576985325987562803e-01,5.184744464212964754e-01,3.277990270084442104e-01,5.594010035396846936e-01,-8.899797404312045912e-02,-5.274530000000000191e-02,9.395930000000000115e-01,-1.368009999999999948e+00,5.818799999999999667e-02,4.904169999999999918e-01,-1.356689999999999952e+00,-7.960480000000000333e-02,5.434269999999999934e-01,-1.401799999999999935e+00,5.845349999999999852e-02,9.303449999999999775e-01,-1.345750000000000002e+00
1.270000000000000000e+02,6.350000000000000089e-01,-1.128611012295990923e+00,3.963732363393022897e-04,5.989627597134667969e-01,-7.897652944715156595e-03,2.950731576953283166e-03,-8.575887310784111595e-01,5.186588325870213900e-01,3.106360803439917606e-01,5.549349716307261371e-01,-5.267946144487830468e-02,-4.659470000000000278e-02,9.429110000000000547e-01,-1.366389999999999993e+00,5.849780000000000257e-02,4.818760000000000265e-01,-1.356459999999999999e+00,-8.022419999999999551e-02,5.349760000000000071e-01,-1.401769999999999960e+00,5.358609999999999762e-02,9.331770000000000342e-01,-1.337429999999999897e+00
1.280000000000000000e+02,6.400000000000000133e-01,-1.127009696663383576e+00,3.127046673795283969e-03,5.988159800510882702e-01,-7.877236610368404390e-03,3.115783154445759574e-03,-8.574630613852637362e-01,5.188659127661170434e-01,3.298937453735771852e-01,5.373310387796755849e-01,-6.033732484394009263e-03,-4.504589999999999983e-02,9.381770000000000387e-01,-1.376710000000000100e+00,6.044469999999999704e-02,4.724070000000000213e-01,-1.355949999999999989e+00,-8.018000000000000127e-02,5.252409999999999579e-01,-1.401659999999999906e+00,5.093109999999999998e-02,9.345040000000000013e-01,-1.342899999999999983e+00
1.290000000000000000e+02,6.450000000000000178e-01,-1.125410262937445394e+00,5.800333735595074834e-03,5.988301901233331614e-01,-8.037187376523442089e-03,3.414522590046584639e-03,-8.574624360824721903e-01,5.188626132167886151e-01,3.098862297670084698e-01,5.319799664682514084e-01,1.171938735119503611e-02,-4.495740000000000153e-02,9.328670000000000018e-01,-1.386449999999999960e+00,6.075450000000000295e-02,4.650619999999999754e-01,-1.355019999999999891e+00,-8.102070000000000105e-02,5.181609999999999827e-01,-1.401429999999999954e+00,5.332060000000000272e-02,9.276010000000000089e-01,-1.351399999999999935e+00
1.300000000000000000e+02,6.500000000000000222e-01,-1.123944186327207939e+00,8.460590116456494225e-03,5.989319606549434738e-01,-8.194635401247747294e-03,3.531074161956877528e-03,-8.574679219114675899e-01,5.188503044143062404e-01,2.765487223613077861e-01,5.321223445399522189e-01,2.899098732221615585e-02,-4.593089999999999673e-02,9.267600000000000282e-01,-1.400879999999999903e+00,6.062170000000000059e-02,4.541319999999999801e-01,-1.351140000000000008e+00,-8.243670000000000164e-02,5.068329999999999780e-01,-1.401629999999999932e+00,5.438260000000000316e-02,9.170260000000000078e-01,-1.364910000000000068e+00
1.310000000000000000e+02,6.550000000000000266e-01,-1.122556001331822317e+00,1.112901035657876472e-02,5.990875492708536143e-01,-8.201027937685097594e-03,3.766662249834109612e-03,-8.574575874581327195e-01,5.188656253201068269e-01,2.787275150919183986e-01,5.352422372768586012e-01,3.324457735145960185e-02,-4.756819999999999798e-02,9.234419999999999851e-01,-1.407920000000000060e+00,6.101999999999999785e-02,4.470080000000000164e-01,-1.346850000000000103e+00,-8.119769999999999766e-02,5.003279999999999950e-01,-1.401200000000000001e+00,5.566580000000000139e-02,9.133970000000000145e-01,-1.372190000000000021e+00
1.320000000000000000e+02,6.600000000000000311e-01,-1.121119216815993358e+00,1.379445991131982192e-02,5.992638546238158170e-01,-8.040887240247237069e-03,3.997350131363565200e-03,-8.574691042054262136e-01,5.188473732125339355e-01,2.959859317716312388e-01,5.309324867632682077e-01,3.727727453560748805e-02,-5.128510000000000013e-02,9.204769999999999897e-01,-1.411399999999999988e+00,5.867479999999999918e-02,4.410780000000000256e-01,-1.342750000000000110e+00,-8.155170000000000474e-02,4.947969999999999868e-01,-1.400740000000000096e+00,6.181650000000000339e-02,9.100340000000000096e-01,-1.376090000000000035e+00
1.330000000000000000e+02,6.650000000000000355e-01,-1.119667454508417093e+00,1.648331430102252179e-02,5.995094418092827837e-01,-7.795959384121352656e-03,4.139579653759475376e-03,-8.575076018915976928e-01,5.187863680049603632e-01,2.847160093690364602e-01,5.446035332971727039e-01,6.095821333776438311e-02,-5.363029999999999881e-02,9.166720000000000423e-01,-1.410080000000000000e+00,5.739149999999999807e-02,4.316980000000000262e-01,-1.337259999999999893e+00,-8.212700000000000555e-02,4.870539999999999869e-01,-1.399270000000000014e+00,6.677239999999999565e-02,9.054759999999999476e-01,-1.374069999999999903e+00
1.340000000000000000e+02,6.700000000000000400e-01,-1.118269212223027997e+00,1.919880104168116691e-02,5.997752196596520813e-01,-7.738063124789454697e-03,4.349175972645769744e-03,-8.575290569912589200e-01,5.187500549351331536e-01,2.745815051996028378e-01,5.415889837266687490e-01,4.535291707188420646e-02,-5.394009999999999777e-02,9.118479999999999919e-01,-1.405310000000000059e+00,5.721450000000000147e-02,4.216969999999999885e-01,-1.333409999999999984e+00,-8.181720000000000659e-02,4.784689999999999777e-01,-1.396230000000000082e+00,6.783440000000000303e-02,8.993700000000000028e-01,-1.367609999999999992e+00
1.350000000000000000e+02,6.750000000000000444e-01,-1.116891535885730979e+00,2.189557131733297843e-02,6.000016833408328143e-01,-7.799623331564288498e-03,4.107601739661151559e-03,-8.574900348351317536e-01,5.188156027668829884e-01,2.764879497227039074e-01,5.371230723640263438e-01,4.523295814522208802e-02,-5.721450000000000147e-02,9.080869999999999775e-01,-1.401769999999999960e+00,5.540029999999999955e-02,4.136000000000000232e-01,-1.334189999999999987e+00,-7.805600000000000038e-02,4.716110000000000024e-01,-1.395920000000000050e+00,6.969290000000000207e-02,8.963609999999999634e-01,-1.362719999999999931e+00
1.360000000000000000e+02,6.800000000000000488e-01,-1.115486319330764031e+00,2.454768265344445255e-02,6.002934741639979199e-01,-8.039844314126182515e-03,3.770452398737203070e-03,-8.574442781547049197e-01,5.188901140742189222e-01,2.855998435702726823e-01,5.237321120381087658e-01,7.148510775125116457e-02,-5.902879999999999933e-02,9.015819999999999945e-01,-1.397299999999999986e+00,5.584279999999999800e-02,4.040860000000000007e-01,-1.344929999999999959e+00,-7.610899999999999610e-02,4.615219999999999878e-01,-1.404239999999999933e+00,7.026810000000000000e-02,8.926880000000000370e-01,-1.357169999999999987e+00
1.370000000000000000e+02,6.850000000000000533e-01,-1.114110304386271011e+00,2.714887977256760787e-02,6.006828827875808630e-01,-8.368575851587522346e-03,3.423944542694250595e-03,-8.572426680855927961e-01,5.192203266317340082e-01,2.648091491772358030e-01,5.167536203133240580e-01,8.428013637814046888e-02,-5.871900000000000036e-02,8.965379999999999461e-01,-1.396490000000000009e+00,5.650650000000000117e-02,4.010770000000000168e-01,-1.355750000000000011e+00,-7.646300000000000319e-02,4.574509999999999965e-01,-1.413310000000000066e+00,6.986989999999999867e-02,8.890160000000000284e-01,-1.356770000000000032e+00
1.380000000000000000e+02,6.900000000000000577e-01,-1.112802273863372715e+00,2.966683067415464004e-02,6.011186414237226217e-01,-8.522397835901741187e-03,2.861958500069938533e-03,-8.570033218639472317e-01,5.196161855397845031e-01,2.584042273638752496e-01,4.904359528469982576e-01,9.002785387036263409e-02,-5.858630000000000088e-02,8.913170000000000259e-01,-1.397489999999999899e+00,5.663929999999999659e-02,3.992180000000000173e-01,-1.368349999999999955e+00,-7.686129999999999352e-02,4.554150000000000142e-01,-1.424449999999999994e+00,6.885209999999999941e-02,8.844140000000000335e-01,-1.358640000000000070e+00
1.390000000000000000e+02,6.950000000000000622e-01,-1.111526530421529158e+00,3.205779237243981672e-02,6.015299995146774492e-01,-8.666123693424851795e-03,2.264544742011575726e-03,-8.567496385459716368e-01,5.200349248085884835e-01,2.518950800228038633e-01,4.659541916720497112e-01,7.451971786591379820e-02,-5.867479999999999918e-02,8.853870000000000351e-01,-1.400679999999999925e+00,5.593130000000000324e-02,4.035110000000000086e-01,-1.388589999999999991e+00,-7.686129999999999352e-02,4.551499999999999990e-01,-1.442860000000000031e+00,6.871939999999999993e-02,8.783069999999999489e-01,-1.363490000000000091e+00
1.400000000000000000e+02,7.000000000000000666e-01,-1.110257091860185952e+00,3.434330803494115708e-02,6.019035101941943022e-01,-8.877012403033839039e-03,2.153452431761525981e-03,-8.564934355671874888e-01,5.204536983784651127e-01,2.558852661007357532e-01,4.482560494561629305e-01,7.488556599045251283e-02,-5.871900000000000036e-02,8.802539999999999809e-01,-1.404209999999999958e+00,5.637380000000000169e-02,4.126699999999999813e-01,-1.413510000000000044e+00,-7.681699999999999640e-02,4.626720000000000277e-01,-1.463710000000000067e+00,6.947159999999999447e-02,8.738820000000000476e-01,-1.369310000000000027e+00
1.410000000000000000e+02,7.049999999999999600e-01,-1.108993310897050000e+00,3.653034921332040663e-02,6.022971640984852160e-01,-8.898628223280318286e-03,1.953128728763221366e-03,-8.561975899441669480e-01,5.209406710075520364e-01,2.496296342527000445e-01,4.265626235585471271e-01,8.257710742705075269e-02,-5.845349999999999852e-02,8.725990000000000135e-01,-1.407289999999999930e+00,5.557730000000000309e-02,4.242639999999999745e-01,-1.453920000000000101e+00,-7.765779999999999905e-02,4.743979999999999864e-01,-1.498180000000000067e+00,7.017959999999999476e-02,8.671119999999999939e-01,-1.374409999999999910e+00
1.420000000000000000e+02,7.099999999999999645e-01,-1.107749202964542379e+00,3.865892444898116898e-02,6.027281927798580075e-01,-9.021241042275205194e-03,1.815581878499853514e-03,-8.558762191828793719e-01,5.214668871000393002e-01,2.480145340127125342e-01,4.248704582888556125e-01,8.983448734634831567e-02,-5.854199999999999682e-02,8.707850000000000312e-01,-1.407459999999999933e+00,5.548879999999999785e-02,4.285559999999999925e-01,-1.465289999999999981e+00,-7.748080000000000245e-02,4.781150000000000122e-01,-1.508369999999999989e+00,7.040090000000000237e-02,8.653859999999999886e-01,-1.374829999999999997e+00
1.430000000000000000e+02,7.149999999999999689e-01,-1.106519856431537940e+00,4.077239201256625811e-02,6.031588859571759276e-01,-9.098699695271522669e-03,1.639287688627632904e-03,-8.555281450378877661e-01,5.220369866971551476e-01,2.437247103167378415e-01,4.205182012804145608e-01,8.244302301550367196e-02,-5.880749999999999866e-02,8.674659999999999593e-01,-1.407149999999999901e+00,5.553310000000000191e-02,4.369190000000000018e-01,-1.488110000000000044e+00,-7.779049999999999854e-02,4.865229999999999833e-01,-1.529279999999999973e+00,7.057789999999999897e-02,8.623769999999999492e-01,-1.374630000000000019e+00
1.440000000000000000e+02,7.199999999999999734e-01,-1.105301652560648273e+00,4.282419340044357758e-02,6.035537745572957524e-01,-9.134522854938518371e-03,1.522616819285625743e-03,-8.551872162230517160e-01,5.225950280771787249e-01,2.435608470854494778e-01,4.002039285477627106e-01,7.551317987926836617e-02,-5.867479999999999918e-02,8.621999999999999664e-01,-1.406539999999999901e+00,5.433829999999999910e-02,4.519199999999999884e-01,-1.521169999999999911e+00,-7.796749999999999514e-02,4.996200000000000085e-01,-1.562119999999999953e+00,7.088759999999999506e-02,8.576869999999999772e-01,-1.373210000000000042e+00
1.450000000000000000e+02,7.249999999999999778e-01,-1.104105514693551893e+00,4.479439629816668600e-02,6.039567533440134417e-01,-9.173714067977440864e-03,1.503060455838447140e-03,-8.548137519582317267e-01,5.232050547105230320e-01,2.348977312049128352e-01,3.878758063907696285e-01,8.567853965253628690e-02,-5.876329999999999748e-02,8.580410000000000537e-01,-1.406509999999999927e+00,5.407279999999999726e-02,4.651060000000000194e-01,-1.543069999999999942e+00,-7.783479999999999566e-02,5.103729999999999656e-01,-1.585409999999999986e+00,7.110890000000000266e-02,8.541910000000000336e-01,-1.372640000000000082e+00
1.460000000000000000e+02,7.299999999999999822e-01,-1.102945268726092776e+00,4.670871778498059818e-02,6.043975682904468849e-01,-9.106379052737796284e-03,1.360622409933372320e-03,-8.544425199727500031e-01,5.238126560726724668e-01,2.292006871080320696e-01,3.778529049485812030e-01,9.064746797095989128e-02,-5.902879999999999933e-02,8.514920000000000266e-01,-1.406709999999999905e+00,5.460380000000000095e-02,4.859029999999999738e-01,-1.574920000000000098e+00,-7.845430000000000459e-02,5.292229999999999990e-01,-1.618640000000000079e+00,7.159559999999999536e-02,8.487489999999999757e-01,-1.372980000000000089e+00
1.470000000000000000e+02,7.349999999999999867e-01,-1.101792264541914035e+00,4.856267808194612845e-02,6.048716340073191366e-01,-9.082919024086403073e-03,1.196707191416359955e-03,-8.540375307765034618e-01,5.244735079402566003e-01,2.320026367960871805e-01,3.637342769013670596e-01,9.897948694763988864e-02,-5.889599999999999697e-02,8.475979999999999626e-01,-1.406859999999999999e+00,5.451530000000000264e-02,4.993989999999999818e-01,-1.596680000000000099e+00,-7.894099999999999728e-02,5.433829999999999494e-01,-1.640530000000000044e+00,7.163990000000000635e-02,8.452969999999999651e-01,-1.373499999999999943e+00
1.480000000000000000e+02,7.399999999999999911e-01,-1.100628958081175446e+00,5.035979467838435503e-02,6.053872764685630514e-01,-9.143875026755210120e-03,1.200248303279987392e-03,-8.536486198609402054e-01,5.251052073585856794e-01,2.333231393326007930e-01,3.551131381764900952e-01,1.072775410570511317e-01,-5.880749999999999866e-02,8.428630000000000289e-01,-1.406970000000000054e+00,5.464809999999999807e-02,5.218779999999999530e-01,-1.628370000000000095e+00,-7.929500000000000437e-02,5.662160000000000526e-01,-1.671610000000000040e+00,7.199389999999999956e-02,8.400760000000000449e-01,-1.374039999999999928e+00
1.490000000000000000e+02,7.449999999999999956e-01,-1.099478731228173300e+00,5.210868907873416472e-02,6.059508067837278134e-01,-9.204462777992999944e-03,1.232257709564867640e-03,-8.532770718586327741e-01,5.257076127262655385e-01,2.267715222635978134e-01,3.444430724171898550e-01,1.181347372996178202e-01,-5.885180000000000272e-02,8.395000000000000240e-01,-1.407000000000000028e+00,5.509060000000000346e-02,5.367459999999999454e-01,-1.648810000000000109e+00,-7.978169999999999706e-02,5.821460000000000523e-01,-1.692150000000000043e+00,7.225929999999999853e-02,8.366679999999999673e-01,-1.374179999999999957e+00
1.500000000000000000e+02,7.500000000000000000e-01,-1.098360364261477207e+00,5.379958040876019892e-02,6.065656727752463118e-01,-9.240241042886359127e-03,1.185165337906668101e-03,-8.529039577570531883e-01,5.263122155175876671e-01,2.205783791173140385e-01,3.319130551491213943e-01,1.278119008728766381e-01,-5.911729999999999763e-02,8.331290000000000084e-01,-1.406970000000000054e+00,5.509060000000000346e-02,5.598880000000000523e-01,-1.678180000000000005e+00,-8.013570000000000415e-02,6.062619999999999676e-01,-1.722140000000000004e+00,7.340979999999999728e-02,8.321110000000000451e-01,-1.374039999999999928e+00
1.510000000000000000e+02,7.550000000000000044e-01,-1.097262345628954749e+00,5.543948843610527200e-02,6.072091229569184234e-01,-9.172698568114400972e-03,1.150798656649855553e-03,-8.524939260168633570e-01,5.269773613732100515e-01,2.186298713386601034e-01,3.240494486471492408e-01,1.295680962623843024e-01,-5.955980000000000302e-02,8.287480000000000402e-01,-1.406970000000000054e+00,5.531180000000000124e-02,5.770570000000000421e-01,-1.695910000000000029e+00,-8.026850000000000651e-02,6.223239999999999883e-01,-1.741330000000000044e+00,7.429479999999999418e-02,8.291460000000000496e-01,-1.373979999999999979e+00
1.520000000000000000e+02,7.600000000000000089e-01,-1.096174724592567040e+00,5.704080478511813074e-02,6.078493931137506356e-01,-9.039065250965651679e-03,1.116553858804651038e-03,-8.520988637731343740e-01,5.276183004743943972e-01,2.164184447036914816e-01,3.164758241646799530e-01,1.265397579840824016e-01,-6.017920000000000214e-02,8.235259999999999803e-01,-1.406970000000000054e+00,5.579850000000000088e-02,6.037839999999999874e-01,-1.720630000000000104e+00,-8.057820000000000260e-02,6.476790000000000047e-01,-1.768680000000000030e+00,7.562230000000000341e-02,8.242340000000000222e-01,-1.373950000000000005e+00
1.530000000000000000e+02,7.650000000000000133e-01,-1.095097429876056516e+00,5.859673282933919314e-02,6.084892636929096765e-01,-8.880631663769091716e-03,1.047988768330153538e-03,-8.517495839846284111e-01,5.281847956112444287e-01,2.144988501117422175e-01,3.058944556487476762e-01,1.294082654969365420e-01,-6.088720000000000243e-02,8.159600000000000186e-01,-1.406970000000000054e+00,5.637380000000000169e-02,6.393159999999999954e-01,-1.750229999999999952e+00,-8.115350000000000341e-02,6.838309999999999667e-01,-1.800969999999999960e+00,7.633030000000000370e-02,8.172430000000000527e-01,-1.373979999999999979e+00
1.540000000000000000e+02,7.700000000000000178e-01,-1.094020407770378345e+00,6.011360279491494846e-02,6.091428380962830014e-01,-8.759919372823180006e-03,1.077362810187637576e-03,-8.513376900086290222e-01,5.288503916088312939e-01,2.163098335109386317e-01,3.008523760390663937e-01,1.320213924707087649e-01,-6.119700000000000140e-02,8.138800000000000479e-01,-1.406970000000000054e+00,5.668349999999999778e-02,6.489620000000000388e-01,-1.757400000000000073e+00,-8.115350000000000341e-02,6.927689999999999682e-01,-1.808110000000000106e+00,7.655149999999999455e-02,8.155170000000000474e-01,-1.373979999999999979e+00
1.550000000000000000e+02,7.750000000000000222e-01,-1.092929526555968200e+00,6.160397383323244075e-02,6.097984356208867585e-01,-8.707670835806528842e-03,1.073507024219267237e-03,-8.509204338903805231e-01,5.295223652228264744e-01,2.200434067017993656e-01,2.952965499825759288e-01,1.302176193487863676e-01,-6.186069999999999763e-02,8.098980000000000068e-01,-1.406970000000000054e+00,5.730299999999999977e-02,6.675029999999999575e-01,-1.770759999999999890e+00,-8.115350000000000341e-02,7.112659999999999538e-01,-1.821630000000000082e+00,7.708249999999999824e-02,8.125080000000000080e-01,-1.373899999999999899e+00
1.560000000000000000e+02,7.800000000000000266e-01,-1.091830256796654464e+00,6.306565803069105747e-02,6.104426249421934791e-01,-8.631804061536031344e-03,1.094260692834420588e-03,-8.505354132836041581e-01,5.301417747496925958e-01,2.196651312099916764e-01,2.893760691306872523e-01,1.274579824316769694e-01,-6.256870000000000487e-02,8.063580000000000192e-01,-1.406940000000000079e+00,5.792250000000000176e-02,6.859110000000000484e-01,-1.783519999999999994e+00,-8.133050000000000002e-02,7.301159999999999872e-01,-1.833790000000000031e+00,7.770199999999999330e-02,8.096759999999999513e-01,-1.373720000000000052e+00
1.570000000000000000e+02,7.850000000000000311e-01,-1.090736245827041984e+00,6.449705908677295929e-02,6.110632107472504515e-01,-8.522152857012049720e-03,1.151258259156226916e-03,-8.501244010537477580e-01,5.308022666494508490e-01,2.179399921475945745e-01,2.831823300269232790e-01,1.207760781382794246e-01,-6.358650000000000413e-02,8.014019999999999477e-01,-1.406940000000000079e+00,5.823230000000000073e-02,7.127259999999999707e-01,-1.801779999999999937e+00,-8.150749999999999662e-02,7.579930000000000279e-01,-1.849650000000000016e+00,7.854279999999999595e-02,8.056050000000000155e-01,-1.373499999999999943e+00
1.580000000000000000e+02,7.900000000000000355e-01,-1.089648370490678086e+00,6.590010289623460249e-02,6.116623440636842490e-01,-8.459954233178313895e-03,1.206417317121105193e-03,-8.496866134277729632e-01,5.315036488354124566e-01,2.172112165167650044e-01,2.780336497558803521e-01,1.188771001765398794e-01,-6.469270000000000576e-02,7.958709999999999951e-01,-1.406859999999999999e+00,5.871900000000000036e-02,7.399390000000000134e-01,-1.818149999999999933e+00,-8.141900000000000526e-02,7.864449999999999497e-01,-1.862530000000000019e+00,7.982599999999999418e-02,8.014019999999999477e-01,-1.373299999999999965e+00
1.590000000000000000e+02,7.950000000000000400e-01,-1.088566855343607864e+00,6.728083757570545165e-02,6.122358420353793962e-01,-8.377250059590330214e-03,1.170610377051188328e-03,-8.492577941732677438e-01,5.321899533257138382e-01,2.153946710005354703e-01,2.742594765134768742e-01,1.105220160991525757e-01,-6.566619999999999402e-02,7.921979999999999578e-01,-1.406800000000000050e+00,5.951549999999999896e-02,7.582590000000000163e-01,-1.827380000000000004e+00,-8.159600000000000186e-02,8.046759999999999469e-01,-1.869890000000000052e+00,8.053399999999999448e-02,7.985700000000000021e-01,-1.373210000000000042e+00
1.600000000000000000e+02,8.000000000000000444e-01,-1.087495345009600323e+00,6.864397867950437770e-02,6.127605992431881532e-01,-8.237224530801575892e-03,1.097789328703788203e-03,-8.488044883487251280e-01,5.329149834464814717e-01,2.132084227400900811e-01,2.709961120707103377e-01,9.938073888547867274e-02,-6.703789999999999749e-02,7.870650000000000146e-01,-1.406679999999999930e+00,6.053320000000000228e-02,7.858260000000000245e-01,-1.838510000000000089e+00,-8.164019999999999611e-02,8.318010000000000126e-01,-1.878880000000000106e+00,8.124199999999999477e-02,7.948530000000000317e-01,-1.372980000000000089e+00
1.610000000000000000e+02,8.050000000000000488e-01,-1.086429298838506696e+00,6.998575175170169971e-02,6.132478788465013375e-01,-8.104921681350912496e-03,9.947871688394296485e-04,-8.483466968967583455e-01,5.336456675917768955e-01,2.132090706630725141e-01,2.657132876959727441e-01,9.553112597386781424e-02,-6.787859999999999727e-02,7.839669999999999694e-01,-1.406600000000000072e+00,6.110850000000000309e-02,8.031719999999999970e-01,-1.844719999999999915e+00,-8.164019999999999611e-02,8.497219999999999773e-01,-1.883499999999999952e+00,8.172870000000000135e-02,7.923750000000000515e-01,-1.372870000000000035e+00
1.620000000000000000e+02,8.100000000000000533e-01,-1.085370218374316575e+00,7.130131546803182563e-02,6.137082192789551360e-01,-8.046056409884047925e-03,9.310807618785510616e-04,-8.479109132589806030e-01,5.343388187969042580e-01,2.104233798295993274e-01,2.605116876813736715e-01,8.860500543681923413e-02,-6.871939999999999993e-02,7.806929999999999703e-01,-1.406570000000000098e+00,6.203770000000000118e-02,8.196769999999999889e-01,-1.849849999999999994e+00,-8.164019999999999611e-02,8.666249999999999787e-01,-1.886830000000000007e+00,8.208269999999999456e-02,7.897640000000000216e-01,-1.372779999999999889e+00
